;Generated with Cura_SteamEngine 15.05
; Default start code
G28 ; Home extruder
G1 Z15 F100
M107 ; Turn off fan
G90 ; Absolute positioning
M82 ; Extruder in absolute mode
M190 S60
; Activate all used extruder
M104 T0 S222
G92 E0 ; Reset extruder position
; Wait for all used extruders to reach temperature
M109 T0 S222
;Layer count: 6
;LAYER:0
M107
G0 F9000 X15.800 Y81.199 Z0.300
;TYPE:SKIRT
G1 F1800 X102.200 Y81.199 E4.31051
G1 X102.200 Y107.599 E5.62761
G1 X15.800 Y107.599 E9.93813
G1 X15.800 Y81.199 E11.25523
G0 F9000 X15.800 Y109.999
G1 F1800 X22.949 Y109.999 E11.61189
G1 X23.047 Y111.199 E11.67196
G1 X54.964 Y111.199 E13.26431
G1 X55.069 Y109.999 E13.32440
G1 X62.949 Y109.999 E13.71754
G1 X63.047 Y111.199 E13.77761
G1 X94.964 Y111.199 E15.36995
G1 X95.069 Y109.999 E15.43005
G1 X102.200 Y109.999 E15.78582
G1 X102.200 Y138.800 E17.22270
G1 X95.054 Y138.800 E17.57922
G1 X94.955 Y137.599 E17.63934
G1 X63.038 Y137.599 E19.23169
G1 X62.933 Y138.800 E19.29183
G1 X55.054 Y138.800 E19.68492
G1 X54.955 Y137.599 E19.74504
G1 X23.038 Y137.599 E21.33739
G1 X22.933 Y138.800 E21.39753
G1 X15.800 Y138.800 E21.75340
G1 X15.800 Y109.999 E23.19029
G1 F2400 E19.19029
G0 F9000 X58.800 Y100.899
;TYPE:WALL-INNER
G1 F2400 E23.19029
G1 F1800 X58.800 Y87.900 E23.83881
G1 X59.199 Y87.900 E23.85872
G1 X59.199 Y100.899 E24.50724
G1 X58.800 Y100.899 E24.52714
G0 F9000 X58.400 Y101.000
;TYPE:WALL-OUTER
G1 F1800 X58.400 Y87.799 E25.18575
G1 X56.586 Y87.799 E25.27625
G1 X40.500 Y94.264 E26.14117
G1 X40.500 Y94.534 E26.15464
G1 X56.586 Y101.000 E27.01958
G1 X58.400 Y101.000 E27.11008
G0 F9000 X59.599 Y101.000
G1 F1800 X61.413 Y101.000 E27.20058
G1 X77.499 Y94.534 E28.06553
G1 X77.499 Y94.264 E28.07900
G1 X61.413 Y87.799 E28.94392
G1 X59.599 Y87.799 E29.03442
G1 X59.599 Y101.000 E29.69302
G1 F2400 E25.69302
G0 F9000 X61.599 Y101.047
G1 F2400 E29.69302
G1 F1800 X61.599 Y103.399 E29.81036
G1 X78.799 Y103.399 E30.66847
G1 X78.799 Y96.999 E30.98777
G1 X77.499 Y96.999 E31.05263
G1 X77.499 Y94.602 E31.17222
G1 X61.599 Y101.047 E32.02816
G0 F9000 X61.200 Y101.299
G1 F1800 X56.800 Y101.299 E32.24768
G1 X56.800 Y103.399 E32.35245
G1 X61.200 Y103.399 E32.57196
G1 X61.200 Y101.299 E32.67673
G1 F2400 E28.67673
G0 F9000 X56.400 Y101.047
G1 F2400 E32.67673
G1 F1800 X40.500 Y94.602 E33.53268
G1 X40.500 Y96.999 E33.65226
G1 X39.200 Y96.999 E33.71712
G1 X39.200 Y103.399 E34.03642
G1 X56.400 Y103.399 E34.89453
G1 X56.400 Y101.047 E35.01187
G1 F2400 E31.01187
G0 F9000 X56.400 Y87.752
G1 F2400 E35.01187
G1 F1800 X56.400 Y85.400 E35.12921
G1 X39.200 Y85.400 E35.98733
G1 X39.200 Y91.800 E36.30662
G1 X40.500 Y91.800 E36.37148
G1 X40.500 Y94.196 E36.49102
G1 X56.400 Y87.752 E37.34694
G0 F9000 X56.800 Y87.500
G1 F1800 X61.200 Y87.500 E37.56646
G1 X61.200 Y85.400 E37.67123
G1 X56.800 Y85.400 E37.89075
G1 X56.800 Y87.500 E37.99552
G1 F2400 E33.99552
G0 F9000 X61.599 Y87.752
G1 F2400 E37.99552
G1 F1800 X77.499 Y94.196 E38.85144
G1 X77.499 Y91.800 E38.97098
G1 X78.799 Y91.800 E39.03584
G1 X78.799 Y85.400 E39.35513
G1 X61.599 Y85.400 E40.21325
G1 X61.599 Y87.752 E40.33059
G1 F2400 E36.33059
G0 F9000 X79.200 Y85.400
G1 F2400 E40.33059
G1 F1800 X79.200 Y91.800 E40.64988
G1 X80.500 Y91.800 E40.71474
G1 X80.500 Y94.196 E40.83428
G1 X96.400 Y87.752 E41.69020
G1 X96.400 Y85.400 E41.80755
G1 X79.200 Y85.400 E42.66566
G1 F2400 E38.66566
G0 F9000 X80.500 Y94.264
G1 F2400 E42.66566
G1 F1800 X80.500 Y94.534 E42.67913
G1 X96.586 Y101.000 E43.54407
G1 X98.400 Y101.000 E43.63457
G1 X98.400 Y87.799 E44.29317
G1 X96.586 Y87.799 E44.38367
G1 X80.500 Y94.264 E45.24860
G1 F2400 E41.24860
G0 F9000 X80.100 Y92.199
G1 F2400 E45.24860
G1 F1800 X77.899 Y92.199 E45.35840
G1 X77.899 Y96.599 E45.57792
G1 X80.100 Y96.599 E45.68773
G1 X80.100 Y92.199 E45.90725
G1 F2400 E41.90725
G0 F9000 X80.500 Y94.602
G1 F2400 E45.90725
G1 F1800 X80.500 Y96.999 E46.02683
G1 X79.200 Y96.999 E46.09169
G1 X79.200 Y103.399 E46.41099
G1 X96.400 Y103.399 E47.26910
G1 X96.400 Y101.047 E47.38644
G1 X80.500 Y94.602 E48.24239
G1 F2400 E44.24239
G0 F9000 X40.100 Y96.599
G1 F2400 E48.24239
G1 F1800 X40.100 Y92.199 E48.46190
G1 X37.899 Y92.199 E48.57171
G1 X37.899 Y96.599 E48.79123
G1 X40.100 Y96.599 E48.90104
G1 F2400 E44.90104
G0 F9000 X37.499 Y94.534
G1 F2400 E48.90104
G1 F1800 X37.499 Y94.264 E48.91451
G1 X21.413 Y87.799 E49.77943
G1 X19.599 Y87.799 E49.86993
G1 X19.599 Y101.000 E50.52853
G1 X21.413 Y101.000 E50.61903
G1 X37.499 Y94.534 E51.48397
G0 F9000 X37.499 Y94.196
G1 F1800 X37.499 Y91.800 E51.60351
G1 X38.799 Y91.800 E51.66837
G1 X38.799 Y85.400 E51.98767
G1 X21.599 Y85.400 E52.84578
G1 X21.599 Y87.752 E52.96312
G1 X37.499 Y94.196 E53.81905
G0 F9000 X37.499 Y94.602
G1 F1800 X21.599 Y101.047 E54.67499
G1 X21.599 Y103.399 E54.79233
G1 X38.799 Y103.399 E55.65044
G1 X38.799 Y96.999 E55.96974
G1 X37.499 Y96.999 E56.03460
G1 X37.499 Y94.602 E56.15419
G1 F2400 E52.15419
G0 F9000 X21.200 Y101.299
G1 F2400 E56.15419
G1 F1800 X19.200 Y101.299 E56.25397
G1 X19.200 Y87.500 E56.94240
G1 X21.200 Y87.500 E57.04218
G1 X21.200 Y85.400 E57.14695
G1 X19.200 Y85.400 E57.24673
G1 X19.200 Y84.599 E57.28669
G1 X98.800 Y84.599 E61.25795
G1 X98.800 Y85.400 E61.29792
G1 X96.800 Y85.400 E61.39770
G1 X96.800 Y87.500 E61.50246
G1 X98.800 Y87.500 E61.60225
G1 X98.800 Y101.299 E62.29068
G1 X96.800 Y101.299 E62.39046
G1 X96.800 Y103.399 E62.49523
G1 X98.800 Y103.399 E62.59501
G1 X98.800 Y104.199 E62.63492
G1 X19.200 Y104.199 E66.60618
G1 X19.200 Y103.399 E66.64609
G1 X21.200 Y103.399 E66.74588
G1 X21.200 Y101.299 E66.85064
G1 F2400 E62.85064
G0 F9000 X21.290 Y103.598
;TYPE:SKIN
G1 F2400 E66.85064
G1 F1800 X21.773 Y103.798 E66.87888
G1 X22.339 Y103.798 E66.90704
G1 X22.905 Y103.798 E66.93521
G1 X23.470 Y103.798 E66.96340
G1 X24.036 Y103.798 E66.99157
G1 X24.602 Y103.798 E67.01973
G1 X25.167 Y103.798 E67.04792
G1 X25.733 Y103.798 E67.07616
G1 X26.299 Y103.798 E67.10433
G1 X26.864 Y103.798 E67.13252
G1 X27.430 Y103.798 E67.16075
G1 X27.996 Y103.798 E67.18892
G1 X28.561 Y103.798 E67.21711
G1 X29.127 Y103.798 E67.24535
G1 X29.693 Y103.798 E67.27351
G1 X30.258 Y103.798 E67.30170
G1 X30.824 Y103.798 E67.32994
G1 X31.390 Y103.798 E67.35811
G1 X31.956 Y103.798 E67.38627
G1 X32.521 Y103.798 E67.41446
G1 X33.087 Y103.798 E67.44263
G1 X33.653 Y103.798 E67.47080
G1 X34.218 Y103.798 E67.49898
G1 X34.784 Y103.798 E67.52715
G1 X35.350 Y103.798 E67.55532
G1 X35.915 Y103.798 E67.58351
G1 X36.481 Y103.798 E67.61175
G1 X37.047 Y103.798 E67.63991
G1 X37.612 Y103.798 E67.66810
G1 X38.178 Y103.798 E67.69634
G1 X38.744 Y103.798 E67.72451
G1 X39.309 Y103.798 E67.75269
G1 X39.875 Y103.798 E67.78093
G1 X40.441 Y103.798 E67.80910
G1 X41.006 Y103.798 E67.83729
G1 X41.572 Y103.798 E67.86552
G1 X42.138 Y103.798 E67.89369
G1 X42.704 Y103.798 E67.92186
G1 X43.269 Y103.798 E67.95005
G1 X43.835 Y103.798 E67.97821
G1 X44.401 Y103.798 E68.00638
G1 X44.966 Y103.798 E68.03457
G1 X45.532 Y103.798 E68.06274
G1 X46.098 Y103.798 E68.09090
G1 X46.663 Y103.798 E68.11909
G1 X47.229 Y103.798 E68.14733
G1 X47.795 Y103.798 E68.17550
G1 X48.360 Y103.798 E68.20368
G1 X48.926 Y103.798 E68.23192
G1 X49.492 Y103.798 E68.26009
G1 X50.057 Y103.798 E68.28828
G1 X50.623 Y103.798 E68.31652
G1 X51.189 Y103.798 E68.34468
G1 X51.754 Y103.798 E68.37287
G1 X52.320 Y103.798 E68.40111
G1 X52.886 Y103.798 E68.42928
G1 X53.452 Y103.798 E68.45744
G1 X54.017 Y103.798 E68.48563
G1 X54.583 Y103.798 E68.51380
G1 X55.149 Y103.798 E68.54197
G1 X55.714 Y103.798 E68.57015
G1 X56.280 Y103.798 E68.59839
G1 X56.846 Y103.798 E68.62656
G1 X57.411 Y103.798 E68.65475
G1 X57.977 Y103.798 E68.68298
G1 X58.543 Y103.798 E68.71115
G1 X59.108 Y103.798 E68.73934
G1 X59.674 Y103.798 E68.76758
G1 X60.240 Y103.798 E68.79575
G1 X60.805 Y103.798 E68.82393
G1 X61.371 Y103.798 E68.85217
G1 X61.937 Y103.798 E68.88034
G1 X62.503 Y103.798 E68.90851
G1 X63.068 Y103.798 E68.93669
G1 X63.634 Y103.798 E68.96486
G1 X64.200 Y103.798 E68.99303
G1 X64.765 Y103.798 E69.02122
G1 X65.331 Y103.798 E69.04938
G1 X65.897 Y103.798 E69.07755
G1 X66.462 Y103.798 E69.10574
G1 X67.028 Y103.798 E69.13398
G1 X67.594 Y103.798 E69.16214
G1 X68.159 Y103.798 E69.19033
G1 X68.725 Y103.798 E69.21857
G1 X69.291 Y103.798 E69.24674
G1 X69.856 Y103.798 E69.27492
G1 X70.422 Y103.798 E69.30316
G1 X70.988 Y103.798 E69.33133
G1 X71.553 Y103.798 E69.35952
G1 X72.119 Y103.798 E69.38776
G1 X72.685 Y103.798 E69.41592
G1 X73.251 Y103.798 E69.44409
G1 X73.816 Y103.798 E69.47228
G1 X74.382 Y103.798 E69.50045
G1 X74.948 Y103.798 E69.52861
G1 X75.513 Y103.798 E69.55680
G1 X76.079 Y103.798 E69.58504
G1 X76.645 Y103.798 E69.61321
G1 X77.210 Y103.798 E69.64139
G1 X77.776 Y103.798 E69.66963
G1 X78.342 Y103.798 E69.69780
G1 X78.907 Y103.798 E69.72599
G1 X79.473 Y103.798 E69.75422
G1 X80.039 Y103.798 E69.78239
G1 X80.604 Y103.798 E69.81058
G1 X81.170 Y103.798 E69.83882
G1 X81.736 Y103.798 E69.86698
G1 X82.302 Y103.798 E69.89515
G1 X82.867 Y103.798 E69.92334
G1 X83.433 Y103.798 E69.95151
G1 X83.999 Y103.798 E69.97967
G1 X84.564 Y103.798 E70.00786
G1 X85.130 Y103.798 E70.03603
G1 X85.696 Y103.798 E70.06420
G1 X86.261 Y103.798 E70.09238
G1 X86.827 Y103.798 E70.12062
G1 X87.393 Y103.798 E70.14879
G1 X87.958 Y103.798 E70.17698
G1 X88.524 Y103.798 E70.20522
G1 X89.090 Y103.798 E70.23338
G1 X89.655 Y103.798 E70.26157
G1 X90.221 Y103.798 E70.28981
G1 X90.787 Y103.798 E70.31798
G1 X91.352 Y103.798 E70.34616
G1 X91.918 Y103.798 E70.37440
G1 X92.484 Y103.798 E70.40257
G1 X93.050 Y103.798 E70.43074
G1 X93.615 Y103.798 E70.45892
G1 X94.181 Y103.798 E70.48709
G1 X94.747 Y103.798 E70.51526
G1 X95.312 Y103.798 E70.54345
G1 X95.878 Y103.798 E70.57161
G1 X96.444 Y103.798 E70.59978
G1 X97.009 Y103.798 E70.62797
G1 X97.575 Y103.798 E70.65621
G1 X98.141 Y103.798 E70.68437
G1 X98.600 Y103.974 E70.70890
G1 F2400 E66.70890
G0 F9000 X98.492 Y85.199
G1 F2400 E70.70890
G1 F1800 X98.009 Y84.999 E70.73707
G1 X97.443 Y84.999 E70.76531
G1 X96.878 Y84.999 E70.79349
G1 X96.312 Y84.999 E70.82166
G1 X95.746 Y84.999 E70.84990
G1 X95.181 Y84.999 E70.87809
G1 X94.615 Y84.999 E70.90625
G1 X94.049 Y84.999 E70.93449
G1 X93.484 Y84.999 E70.96268
G1 X92.918 Y84.999 E70.99085
G1 X92.352 Y84.999 E71.01908
G1 X91.787 Y84.999 E71.04727
G1 X91.221 Y84.999 E71.07544
G1 X90.655 Y84.999 E71.10361
G1 X90.090 Y84.999 E71.13180
G1 X89.524 Y84.999 E71.15996
G1 X88.958 Y84.999 E71.18813
G1 X88.393 Y84.999 E71.21632
G1 X87.827 Y84.999 E71.24448
G1 X87.261 Y84.999 E71.27265
G1 X86.695 Y84.999 E71.30089
G1 X86.130 Y84.999 E71.32908
G1 X85.564 Y84.999 E71.35725
G1 X84.998 Y84.999 E71.38548
G1 X84.433 Y84.999 E71.41367
G1 X83.867 Y84.999 E71.44184
G1 X83.301 Y84.999 E71.47008
G1 X82.736 Y84.999 E71.49826
G1 X82.170 Y84.999 E71.52643
G1 X81.604 Y84.999 E71.55467
G1 X81.039 Y84.999 E71.58286
G1 X80.473 Y84.999 E71.61102
G1 X79.907 Y84.999 E71.63919
G1 X79.342 Y84.999 E71.66738
G1 X78.776 Y84.999 E71.69555
G1 X78.210 Y84.999 E71.72371
G1 X77.645 Y84.999 E71.75190
G1 X77.079 Y84.999 E71.78007
G1 X76.513 Y84.999 E71.80824
G1 X75.947 Y84.999 E71.83647
G1 X75.382 Y84.999 E71.86466
G1 X74.816 Y84.999 E71.89283
G1 X74.250 Y84.999 E71.92107
G1 X73.685 Y84.999 E71.94926
G1 X73.119 Y84.999 E71.97742
G1 X72.553 Y84.999 E72.00566
G1 X71.988 Y84.999 E72.03385
G1 X71.422 Y84.999 E72.06202
G1 X70.856 Y84.999 E72.09025
G1 X70.291 Y84.999 E72.11844
G1 X69.725 Y84.999 E72.14661
G1 X69.159 Y84.999 E72.17478
G1 X68.594 Y84.999 E72.20296
G1 X68.028 Y84.999 E72.23113
G1 X67.462 Y84.999 E72.25930
G1 X66.896 Y84.999 E72.28754
G1 X66.331 Y84.999 E72.31572
G1 X65.765 Y84.999 E72.34389
G1 X65.199 Y84.999 E72.37213
G1 X64.634 Y84.999 E72.40032
G1 X64.068 Y84.999 E72.42848
G1 X63.502 Y84.999 E72.45672
G1 X62.937 Y84.999 E72.48491
G1 X62.371 Y84.999 E72.51308
G1 X61.805 Y84.999 E72.54132
G1 X61.240 Y84.999 E72.56950
G1 X60.674 Y84.999 E72.59767
G1 X60.108 Y84.999 E72.62584
G1 X59.543 Y84.999 E72.65403
G1 X58.977 Y84.999 E72.68219
G1 X58.411 Y84.999 E72.71036
G1 X57.846 Y84.999 E72.73855
G1 X57.280 Y84.999 E72.76672
G1 X56.714 Y84.999 E72.79488
G1 X56.148 Y84.999 E72.82312
G1 X55.583 Y84.999 E72.85131
G1 X55.017 Y84.999 E72.87948
G1 X54.451 Y84.999 E72.90771
G1 X53.886 Y84.999 E72.93590
G1 X53.320 Y84.999 E72.96407
G1 X52.754 Y84.999 E72.99231
G1 X52.189 Y84.999 E73.02050
G1 X51.623 Y84.999 E73.04866
G1 X51.057 Y84.999 E73.07690
G1 X50.492 Y84.999 E73.10509
G1 X49.926 Y84.999 E73.13326
G1 X49.360 Y84.999 E73.16142
G1 X48.795 Y84.999 E73.18961
G1 X48.229 Y84.999 E73.21778
G1 X47.663 Y84.999 E73.24595
G1 X47.097 Y84.999 E73.27418
G1 X46.532 Y84.999 E73.30237
G1 X45.966 Y84.999 E73.33054
G1 X45.400 Y84.999 E73.35878
G1 X44.835 Y84.999 E73.38696
G1 X44.269 Y84.999 E73.41513
G1 X43.703 Y84.999 E73.44337
G1 X43.138 Y84.999 E73.47156
G1 X42.572 Y84.999 E73.49972
G1 X42.006 Y84.999 E73.52796
G1 X41.441 Y84.999 E73.55615
G1 X40.875 Y84.999 E73.58432
G1 X40.309 Y84.999 E73.61248
G1 X39.744 Y84.999 E73.64067
G1 X39.178 Y84.999 E73.66884
G1 X38.612 Y84.999 E73.69701
G1 X38.047 Y84.999 E73.72520
G1 X37.481 Y84.999 E73.75336
G1 X36.915 Y84.999 E73.78153
G1 X36.349 Y84.999 E73.80977
G1 X35.784 Y84.999 E73.83796
G1 X35.218 Y84.999 E73.86612
G1 X34.652 Y84.999 E73.89436
G1 X34.087 Y84.999 E73.92255
G1 X33.521 Y84.999 E73.95072
G1 X32.955 Y84.999 E73.97895
G1 X32.390 Y84.999 E74.00714
G1 X31.824 Y84.999 E74.03531
G1 X31.258 Y84.999 E74.06355
G1 X30.693 Y84.999 E74.09173
G1 X30.127 Y84.999 E74.11990
G1 X29.561 Y84.999 E74.14807
G1 X28.996 Y84.999 E74.17626
G1 X28.430 Y84.999 E74.20442
G1 X27.864 Y84.999 E74.23259
G1 X27.299 Y84.999 E74.26078
G1 X26.733 Y84.999 E74.28895
G1 X26.167 Y84.999 E74.31711
G1 X25.601 Y84.999 E74.34535
G1 X25.036 Y84.999 E74.37354
G1 X24.470 Y84.999 E74.40171
G1 X23.904 Y84.999 E74.42995
G1 X23.339 Y84.999 E74.45813
G1 X22.773 Y84.999 E74.48630
G1 X22.207 Y84.999 E74.51454
G1 X21.642 Y84.999 E74.54273
G1 X21.076 Y84.999 E74.57089
G1 X20.510 Y84.999 E74.59913
G1 X19.945 Y84.999 E74.62732
G1 X19.462 Y84.799 E74.65340
G1 F2400 E70.65340
G0 F9000 X19.593 Y103.598
G1 F2400 E74.65340
G1 F1800 X20.076 Y103.798 E74.68163
G1 X20.642 Y103.798 E74.70980
G1 X21.125 Y103.998 E74.73588
G1 F2400 E70.73588
G0 F9000 X19.722 Y115.000
;TYPE:WALL-INNER
G1 F2400 E74.73588
G1 F1800 X19.639 Y115.360 E74.75431
G1 X19.600 Y115.341 E74.75648
G1 X19.600 Y114.999 E74.77354
G1 X58.452 Y114.999 E76.71187
G1 X58.552 Y113.799 E76.77195
G1 X59.447 Y113.799 E76.81660
G1 X59.490 Y114.325 E76.84293
G1 X59.549 Y114.999 E76.87669
G1 X98.400 Y114.999 E78.81497
G1 X98.400 Y115.341 E78.83203
G1 X98.360 Y115.360 E78.83424
G1 X98.277 Y115.000 E78.85267
G1 X59.722 Y115.000 E80.77619
G1 X59.639 Y115.360 E80.79462
G1 X59.199 Y115.151 E80.81892
G1 X59.199 Y133.754 E81.74703
G1 X59.661 Y133.532 E81.77260
G1 X59.722 Y133.799 E81.78627
G1 X59.546 Y133.799 E81.79505
G1 X59.448 Y135.000 E81.85517
G1 X58.553 Y135.000 E81.89982
G1 X58.509 Y134.474 E81.92615
G1 X58.450 Y133.799 E81.95996
G1 X58.277 Y133.799 E81.96859
G1 X58.338 Y133.532 E81.98225
G1 X58.800 Y133.754 E82.00782
G1 X58.800 Y115.151 E82.93593
G1 X58.360 Y115.360 E82.96023
G1 X58.277 Y115.000 E82.97866
G1 X19.722 Y115.000 E84.90218
G1 F2400 E80.90218
G0 F9000 X19.600 Y133.561
G1 F2400 E84.90218
G1 F1800 X19.661 Y133.532 E84.90555
G1 X19.722 Y133.799 E84.91921
G1 X19.600 Y133.799 E84.92530
G1 X19.600 Y133.561 E84.93718
G0 F9000 X19.757 Y133.755
G0 X98.277 Y133.799
G1 F1800 X98.338 Y133.532 E84.95084
G1 X98.400 Y133.562 E84.95428
G1 X98.400 Y133.799 E84.96610
G1 X98.277 Y133.799 E84.97224
G0 F9000 X98.084 Y134.199
;TYPE:WALL-OUTER
G1 F1800 X59.915 Y134.199 E86.87650
G1 X59.817 Y135.400 E86.93661
G1 X58.184 Y135.400 E87.01808
G1 X58.084 Y134.199 E87.07821
G1 X19.915 Y134.199 E88.98247
G1 X19.817 Y135.400 E89.04258
G1 X19.200 Y135.400 E89.07337
G1 X19.200 Y113.399 E90.17100
G1 X19.816 Y113.399 E90.20173
G1 X19.889 Y114.291 E90.24638
G1 X19.916 Y114.599 E90.26181
G1 X58.084 Y114.599 E92.16602
G1 X58.183 Y113.399 E92.22609
G1 X59.816 Y113.399 E92.30756
G1 X59.889 Y114.291 E92.35221
G1 X59.916 Y114.599 E92.36764
G1 X98.084 Y114.599 E94.27185
G1 X98.183 Y113.399 E94.33192
G1 X98.800 Y113.399 E94.36270
G1 X98.800 Y135.400 E95.46033
G1 X98.184 Y135.400 E95.49107
