;Generated with Cura_SteamEngine 15.05
; Default start code
G28 ; Home extruder
G29 ;
G28 X Y;
;M420 S1; not needed - RESTORE_LEVELING_AFTER_G28 used
G1 Z15 F100
M107 ; Turn off fan
G90 ; Absolute positioning
M82 ; Extruder in absolute mode
M190 S50
; Activate all used extruder
M104 T0 S235
G92 E0 ; Reset extruder position
; Wait for all used extruders to reach temperature
M109 T0 S235
;Layer count: 173
;LAYER:0
M107
G0 F9000 X62.050 Y72.323 Z0.300
;TYPE:SKIRT
G1 F1800 X62.050 Y147.677 E3.75943
G1 X66.394 Y147.623 E3.97617
G1 X72.558 Y147.389 E4.28391
G1 X78.596 Y147.007 E4.58575
G1 X84.626 Y146.468 E4.88779
G1 X90.524 Y145.782 E5.18402
G1 X96.318 Y144.948 E5.47607
G1 X101.969 Y143.969 E5.76220
G1 X107.426 Y142.858 E6.04003
G1 X112.733 Y141.601 E6.31212
G1 X117.778 Y140.231 E6.57294
G1 X122.623 Y138.728 E6.82602
G1 X127.229 Y137.104 E7.06968
G1 X131.528 Y135.383 E7.30070
G1 X135.541 Y133.563 E7.52054
G1 X139.284 Y131.633 E7.73064
G1 X142.666 Y129.642 E7.92644
G1 X145.716 Y127.579 E8.11014
G1 X148.434 Y125.445 E8.28255
G1 X150.785 Y123.272 E8.44227
G1 X152.766 Y121.071 E8.59000
G1 X154.378 Y118.851 E8.72688
G1 X155.618 Y116.633 E8.85365
G1 X156.492 Y114.424 E8.97217
G1 X157.007 Y112.259 E9.08320
G1 X157.194 Y109.990 E9.19678
G1 X157.022 Y107.803 E9.30623
G1 X156.500 Y105.592 E9.41957
G1 X155.641 Y103.424 E9.53591
G1 X154.378 Y101.147 E9.66582
G1 X152.800 Y98.975 E9.79976
G1 X150.826 Y96.772 E9.94733
G1 X148.464 Y94.582 E10.10803
G1 X145.768 Y92.460 E10.27920
G1 X142.704 Y90.383 E10.46388
G1 X139.296 Y88.375 E10.66122
G1 X135.589 Y86.460 E10.86938
G1 X131.560 Y84.631 E11.09013
G1 X127.237 Y82.899 E11.32248
G1 X122.668 Y81.286 E11.56421
G1 X117.816 Y79.780 E11.81767
G1 X112.759 Y78.405 E12.07913
G1 X107.457 Y77.149 E12.35096
G1 X101.987 Y76.033 E12.62949
G1 X96.346 Y75.057 E12.91510
G1 X90.542 Y74.221 E13.20765
G1 X84.649 Y73.534 E13.50364
G1 X78.619 Y72.994 E13.80568
G1 X72.580 Y72.612 E14.10757
G1 X66.421 Y72.378 E14.41507
G1 X62.050 Y72.323 E14.63316
G0 F9000 X61.650 Y71.918
G1 F1800 X61.650 Y148.082 E18.43299
G1 X66.414 Y148.023 E18.67069
G1 X72.564 Y147.789 E18.97774
G1 X78.653 Y147.404 E19.28212
G1 X84.646 Y146.868 E19.58231
G1 X90.591 Y146.176 E19.88091
G1 X96.403 Y145.340 E20.17386
G1 X102.018 Y144.368 E20.45815
G1 X107.531 Y143.245 E20.73885
G1 X112.812 Y141.994 E21.00961
G1 X117.900 Y140.612 E21.27265
G1 X122.766 Y139.102 E21.52683
G1 X122.779 Y139.098 E21.52751
G1 X127.349 Y137.486 E21.76928
G1 X131.691 Y135.749 E22.00259
G1 X135.728 Y133.918 E22.22375
G1 X139.457 Y131.994 E22.43309
G1 X142.882 Y129.978 E22.63137
G1 X145.959 Y127.898 E22.81667
G1 X148.696 Y125.748 E22.99031
G1 X151.061 Y123.562 E23.15098
G1 X153.077 Y121.322 E23.30133
G1 X154.717 Y119.064 E23.44056
G1 X155.982 Y116.801 E23.56990
G1 X156.873 Y114.548 E23.69078
G1 X157.404 Y112.317 E23.80519
G1 X157.595 Y109.998 E23.92128
G1 X157.417 Y107.731 E24.03473
G1 X156.883 Y105.474 E24.15044
G1 X156.004 Y103.254 E24.26956
G1 X154.719 Y100.936 E24.40179
G1 X153.112 Y98.724 E24.53819
G1 X151.108 Y96.488 E24.68799
G1 X148.727 Y94.280 E24.85000
G1 X146.002 Y92.135 E25.02301
G1 X142.910 Y90.039 E25.20938
G1 X139.504 Y88.032 E25.40661
G1 X135.759 Y86.098 E25.61689
G1 X131.721 Y84.265 E25.83813
G1 X127.370 Y82.522 E26.07198
G1 X122.786 Y80.904 E26.31450
G1 X117.930 Y79.397 E26.56816
G1 X112.837 Y78.011 E26.83150
G1 X107.562 Y76.762 E27.10194
G1 X102.040 Y75.636 E27.38311
G1 X96.426 Y74.664 E27.66736
G1 X90.609 Y73.826 E27.96056
G1 X84.669 Y73.134 E28.25892
G1 X78.676 Y72.597 E28.55911
G1 X72.586 Y72.212 E28.86354
G1 X66.441 Y71.978 E29.17034
G1 X61.650 Y71.918 E29.40938
G0 F9000 X61.250 Y71.514
G1 F1800 X61.250 Y148.487 E33.24958
G1 X66.433 Y148.423 E33.50818
G1 X72.565 Y148.190 E33.81433
G1 X78.678 Y147.803 E34.11992
G1 X84.714 Y147.263 E34.42226
G1 X90.622 Y146.576 E34.71900
G1 X96.460 Y145.736 E35.01326
G1 X102.094 Y144.760 E35.29852
G1 X107.623 Y143.634 E35.58003
G1 X112.912 Y142.382 E35.85119
G1 X118.006 Y140.998 E36.11454
G1 X118.017 Y140.994 E36.11513
G1 X122.879 Y139.486 E36.36909
G1 X122.906 Y139.477 E36.37051
G1 X127.503 Y137.856 E36.61370
G1 X131.833 Y136.123 E36.84638
G1 X135.897 Y134.280 E37.06901
G1 X139.664 Y132.337 E37.28048
G1 X143.099 Y130.315 E37.47934
G1 X146.183 Y128.229 E37.66509
G1 X148.959 Y126.050 E37.84115
G1 X151.353 Y123.836 E38.00384
G1 X153.386 Y121.578 E38.15542
G1 X155.053 Y119.284 E38.29690
G1 X156.344 Y116.971 E38.42905
G1 X157.256 Y114.669 E38.55258
G1 X157.799 Y112.384 E38.66976
G1 X157.997 Y110.000 E38.78910
G1 X157.814 Y107.673 E38.90556
G1 X157.265 Y105.352 E39.02455
G1 X156.366 Y103.081 E39.14640
G1 X155.058 Y100.723 E39.28093
G1 X155.057 Y100.723 E39.28098
G1 X155.053 Y100.716 E39.28138
G1 X153.424 Y98.473 E39.41968
G1 X151.390 Y96.204 E39.57171
G1 X148.991 Y93.979 E39.73495
G1 X146.237 Y91.811 E39.90981
G1 X143.134 Y89.708 E40.09683
G1 X139.676 Y87.671 E40.29705
G1 X135.946 Y85.743 E40.50653
G1 X131.865 Y83.891 E40.73012
G1 X127.533 Y82.155 E40.96295
G1 X122.903 Y80.521 E41.20791
G1 X118.044 Y79.013 E41.46173
G1 X112.945 Y77.626 E41.72536
G1 X107.638 Y76.369 E41.99746
G1 X102.120 Y75.244 E42.27841
G1 X96.483 Y74.268 E42.56383
G1 X90.645 Y73.427 E42.85810
G1 X84.737 Y72.739 E43.15484
G1 X78.701 Y72.198 E43.45718
G1 X72.587 Y71.811 E43.76282
G1 X66.460 Y71.578 E44.06872
G1 X61.250 Y71.514 E44.32867
G0 F9000 X60.850 Y71.108
G1 F1800 X60.850 Y148.892 E48.20933
G1 X66.422 Y148.823 E48.48734
G1 X72.603 Y148.588 E48.79593
G1 X78.702 Y148.202 E49.10082
G1 X84.755 Y147.661 E49.40401
G1 X90.685 Y146.971 E49.70185
G1 X96.517 Y146.132 E49.99581
G1 X102.175 Y145.152 E50.28229
G1 X107.695 Y144.028 E50.56334
G1 X113.019 Y142.767 E50.83630
G1 X118.129 Y141.379 E51.10048
G1 X118.138 Y141.376 E51.10095
G1 X123.017 Y139.862 E51.35581
G1 X123.022 Y139.860 E51.35608
G1 X127.645 Y138.230 E51.60064
G1 X132.006 Y136.485 E51.83498
G1 X136.075 Y134.639 E52.05790
G1 X139.850 Y132.692 E52.26981
G1 X143.304 Y130.659 E52.46977
G1 X146.426 Y128.547 E52.65782
G1 X149.214 Y126.359 E52.83463
G1 X151.640 Y124.115 E52.99950
G1 X153.699 Y121.829 E53.15299
G1 X155.388 Y119.503 E53.29640
G1 X156.707 Y117.142 E53.43133
G1 X157.638 Y114.791 E53.55748
G1 X158.196 Y112.443 E53.67789
G1 X158.397 Y110.008 E53.79978
G1 X158.398 Y109.996 E53.80038
G1 X158.211 Y107.614 E53.91959
G1 X157.647 Y105.230 E54.04181
G1 X156.731 Y102.915 E54.16602
G1 X155.404 Y100.524 E54.30245
G1 X155.391 Y100.499 E54.30385
G1 X153.737 Y98.222 E54.44426
G1 X151.678 Y95.926 E54.59812
G1 X149.246 Y93.670 E54.76362
G1 X146.480 Y91.493 E54.93923
G1 X143.340 Y89.365 E55.12847
G1 X139.877 Y87.324 E55.32902
G1 X136.108 Y85.377 E55.54066
G1 X132.037 Y83.529 E55.76371
G1 X127.674 Y81.781 E55.99820
G1 X123.028 Y80.141 E56.24401
G1 X118.150 Y78.627 E56.49882
G1 X113.045 Y77.239 E56.76276
G1 X107.720 Y75.977 E57.03578
G1 X102.200 Y74.852 E57.31684
G1 X96.540 Y73.872 E57.60342
G1 X90.702 Y73.031 E57.89768
G1 X84.778 Y72.341 E58.19523
G1 X78.725 Y71.799 E58.49842
G1 X72.625 Y71.413 E58.80336
G1 X66.449 Y71.178 E59.11171
G1 X60.850 Y71.108 E59.39107
G0 F9000 X60.450 Y70.703
G1 F1800 X60.450 Y149.297 E63.31214
G1 X66.437 Y149.223 E63.61085
G1 X72.613 Y148.988 E63.91920
G1 X78.740 Y148.600 E64.22549
G1 X78.740 Y148.601 E64.22554
G1 X84.785 Y148.060 E64.52833
G1 X90.742 Y147.367 E64.82753
G1 X96.574 Y146.528 E65.12148
G1 X102.254 Y145.544 E65.40908
G1 X107.777 Y144.419 E65.69028
G1 X113.116 Y143.155 E65.96401
G1 X118.241 Y141.763 E66.22896
G1 X118.258 Y141.757 E66.22986
G1 X123.132 Y140.245 E66.48446
G1 X123.155 Y140.237 E66.48567
G1 X127.782 Y138.605 E66.73045
G1 X132.161 Y136.853 E66.96576
G1 X136.246 Y135.000 E67.18955
G1 X140.048 Y133.039 E67.40297
G1 X140.048 Y133.040 E67.40302
G1 X143.515 Y130.999 E67.60374
G1 X146.669 Y128.866 E67.79370
G1 X149.469 Y126.667 E67.97132
G1 X151.921 Y124.400 E68.13792
G1 X154.010 Y122.080 E68.29368
G1 X155.727 Y119.716 E68.43944
G1 X157.070 Y117.312 E68.57683
G1 X158.020 Y114.912 E68.70560
G1 X158.593 Y112.504 E68.82909
G1 X158.800 Y109.999 E68.95449
G1 X158.608 Y107.555 E69.07680
G1 X158.029 Y105.108 E69.20225
G1 X157.092 Y102.742 E69.32921
G1 X155.729 Y100.286 E69.46935
G1 X154.042 Y97.963 E69.61258
G1 X151.969 Y95.650 E69.76754
G1 X149.509 Y93.369 E69.93491
G1 X146.708 Y91.164 E70.11276
G1 X143.552 Y89.025 E70.30297
G1 X140.083 Y86.981 E70.50384
G1 X136.279 Y85.016 E70.71745
G1 X132.193 Y83.161 E70.94133
G1 X127.812 Y81.406 E71.17678
G1 X123.157 Y79.763 E71.42306
G1 X118.261 Y78.243 E71.67882
G1 X113.142 Y76.851 E71.94349
G1 X107.802 Y75.586 E72.21727
G1 X102.280 Y74.460 E72.49844
G1 X96.597 Y73.476 E72.78618
G1 X90.765 Y72.636 E73.08014
G1 X84.808 Y71.942 E73.37935
G1 X78.763 Y71.400 E73.68214
G1 X78.763 Y71.401 E73.68219
G1 X72.635 Y71.013 E73.98853
G1 X66.464 Y70.778 E74.29663
G1 X60.450 Y70.703 E74.59669
G0 F9000 X60.264 Y69.800
G1 F1800 X66.529 Y69.877 E74.90928
G1 X66.550 Y69.878 E74.91033
G1 X66.554 Y69.878 E74.91053
G1 X72.793 Y70.115 E75.22202
G1 X79.002 Y70.508 E75.53240
G1 X85.138 Y71.057 E75.83975
G1 X91.177 Y71.759 E76.14307
G1 X97.093 Y72.610 E76.44126
G1 X102.864 Y73.609 E76.73346
G1 X108.468 Y74.752 E77.01880
G1 X113.881 Y76.032 E77.29630
G1 X119.084 Y77.447 E77.56531
G1 X124.055 Y78.989 E77.82497
G1 X128.774 Y80.654 E78.07463
G1 X133.222 Y82.433 E78.31363
G1 X133.238 Y82.440 E78.31450
G1 X137.388 Y84.323 E78.54186
G1 X141.248 Y86.313 E78.75852
G1 X144.789 Y88.397 E78.96351
G1 X147.998 Y90.567 E79.15677
G1 X150.862 Y92.816 E79.33845
G1 X153.370 Y95.134 E79.50883
G1 X155.511 Y97.513 E79.66851
G1 X157.277 Y99.944 E79.81841
G1 X158.657 Y102.415 E79.95962
G1 X159.652 Y104.926 E80.09437
G1 X160.250 Y107.457 E80.22412
G1 X160.443 Y109.914 E80.34707
G1 X160.451 Y109.999 E80.35133
G1 X160.250 Y112.542 E80.47860
G1 X159.652 Y115.073 E80.60835
G1 X158.659 Y117.581 E80.74292
G1 X157.320 Y119.978 E80.87990
G1 X157.276 Y120.055 E80.88433
G1 X155.511 Y122.486 E81.03421
G1 X153.415 Y124.814 E81.19049
G1 X150.862 Y127.183 E81.36425
G1 X148.040 Y129.399 E81.54326
G1 X144.828 Y131.575 E81.73682
G1 X141.290 Y133.661 E81.94172
G1 X141.250 Y133.685 E81.94405
G1 X137.422 Y135.658 E82.15890
G1 X133.257 Y137.550 E82.38713
G1 X128.804 Y139.333 E82.62644
G1 X124.088 Y140.998 E82.87596
G1 X124.057 Y141.009 E82.87760
G1 X119.112 Y142.543 E83.13590
G1 X113.907 Y143.959 E83.40502
G1 X108.493 Y145.241 E83.68259
G1 X102.889 Y146.385 E83.96794
G1 X97.117 Y147.384 E84.26019
G1 X91.200 Y148.236 E84.55844
G1 X85.161 Y148.939 E84.86176
G1 X79.025 Y149.488 E85.16911
G1 X72.815 Y149.882 E85.47955
G1 X66.556 Y150.120 E85.79204
G1 X60.278 Y150.199 E86.10527
G1 X60.255 Y150.200 E86.10642
G1 X59.550 Y150.190 E86.14160
G1 X59.550 Y69.808 E90.15187
G1 X60.264 Y69.800 E90.18749
G0 F9000 X60.264 Y69.400
G1 F1800 X66.544 Y69.477 E90.50083
G1 X66.559 Y69.478 E90.50158
G1 X66.561 Y69.478 E90.50168
G1 X72.813 Y69.716 E90.81382
G1 X79.033 Y70.109 E91.12475
G1 X85.179 Y70.659 E91.43260
G1 X91.228 Y71.362 E91.73642
G1 X97.156 Y72.215 E92.03522
G1 X102.938 Y73.216 E92.32797
G1 X108.554 Y74.361 E92.61392
G1 X113.980 Y75.644 E92.89209
G1 X119.196 Y77.063 E93.16177
G1 X124.181 Y78.609 E93.42216
G1 X128.915 Y80.279 E93.67261
G1 X133.373 Y82.063 E93.91217
G1 X133.397 Y82.073 E93.91346
G1 X137.563 Y83.963 E94.14169
G1 X141.441 Y85.962 E94.35936
G1 X145.003 Y88.058 E94.56555
G1 X148.234 Y90.244 E94.76017
G1 X151.122 Y92.511 E94.94335
G1 X153.655 Y94.853 E95.11546
G1 X155.822 Y97.261 E95.27708
G1 X157.614 Y99.728 E95.42920
G1 X159.019 Y102.243 E95.57293
G1 X160.035 Y104.806 E95.71047
G1 X160.619 Y107.277 E95.83715
G1 X160.646 Y107.394 E95.84314
G1 X160.842 Y109.879 E95.96750
G1 X160.852 Y109.997 E95.97341
G1 X160.647 Y112.604 E96.10387
G1 X160.035 Y115.193 E96.23660
G1 X159.063 Y117.647 E96.36829
G1 X159.021 Y117.754 E96.37402
G1 X157.669 Y120.174 E96.51232
G1 X157.613 Y120.272 E96.51795
G1 X155.822 Y122.738 E96.67000
G1 X153.700 Y125.095 E96.82823
G1 X151.184 Y127.430 E96.99948
G1 X151.122 Y127.487 E97.00368
G1 X148.276 Y129.722 E97.18422
G1 X145.042 Y131.913 E97.37911
G1 X141.493 Y134.006 E97.58466
G1 X141.446 Y134.034 E97.58739
G1 X137.597 Y136.018 E97.80343
G1 X133.414 Y137.918 E98.03264
G1 X128.945 Y139.708 E98.27282
G1 X124.221 Y141.375 E98.52274
G1 X124.187 Y141.388 E98.52456
G1 X119.224 Y142.927 E98.78380
G1 X114.006 Y144.347 E99.05359
G1 X108.579 Y145.632 E99.33183
G1 X102.963 Y146.778 E99.61779
G1 X97.180 Y147.779 E99.91059
G1 X91.251 Y148.633 E100.20945
G1 X85.202 Y149.337 E100.51327
G1 X79.056 Y149.887 E100.82112
G1 X72.835 Y150.281 E101.13211
G1 X66.566 Y150.520 E101.44510
G1 X60.290 Y150.599 E101.75823
G1 X60.266 Y150.600 E101.75943
G1 X59.150 Y150.585 E101.81511
G1 X59.150 Y69.413 E105.86480
G1 X60.264 Y69.400 E105.92038
G0 F9000 X60.264 Y69.000
G1 F1800 X66.559 Y69.077 E106.23446
G1 X66.577 Y69.078 E106.23536
G1 X72.834 Y69.316 E106.54775
G1 X79.063 Y69.710 E106.85914
G1 X85.220 Y70.261 E107.16754
G1 X91.280 Y70.965 E107.47191
G1 X97.219 Y71.820 E107.77126
G1 X103.012 Y72.823 E108.06458
G1 X108.640 Y73.970 E108.35113
G1 X114.078 Y75.257 E108.62993
G1 X119.307 Y76.679 E108.90028
G1 X124.307 Y78.230 E109.16145
G1 X129.056 Y79.905 E109.41269
G1 X133.524 Y81.692 E109.65277
G1 X133.557 Y81.706 E109.65455
G1 X137.737 Y83.603 E109.88357
G1 X141.634 Y85.612 E110.10230
G1 X145.216 Y87.720 E110.30966
G1 X148.470 Y89.921 E110.50565
G1 X151.381 Y92.206 E110.69028
G1 X153.940 Y94.572 E110.86416
G1 X156.133 Y97.009 E111.02772
G1 X157.952 Y99.512 E111.18209
G1 X159.381 Y102.071 E111.32831
G1 X160.417 Y104.685 E111.46859
G1 X161.007 Y107.184 E111.59670
G1 X161.008 Y107.184 E111.59675
G1 X161.043 Y107.331 E111.60429
G1 X161.240 Y109.844 E111.73004
G1 X161.253 Y109.995 E111.73761
G1 X161.043 Y112.666 E111.87127
G1 X160.418 Y115.314 E112.00701
G1 X159.435 Y117.795 E112.14015
G1 X159.383 Y117.926 E112.14718
G1 X158.017 Y120.370 E112.28687
G1 X157.950 Y120.489 E112.29368
G1 X156.207 Y122.889 E112.44166
G1 X156.133 Y122.991 E112.44795
G1 X153.985 Y125.376 E112.60808
G1 X151.458 Y127.722 E112.78011
G1 X151.383 Y127.791 E112.78519
G1 X148.512 Y130.045 E112.96730
G1 X145.256 Y132.251 E113.16351
G1 X141.696 Y134.350 E113.36969
G1 X141.642 Y134.383 E113.37285
G1 X137.771 Y136.378 E113.59012
G1 X133.571 Y138.286 E113.82026
G1 X129.086 Y140.082 E114.06129
G1 X124.367 Y141.747 E114.31095
G1 X124.318 Y141.766 E114.31357
G1 X119.335 Y143.311 E114.57385
G1 X114.105 Y144.734 E114.84426
G1 X108.665 Y146.023 E115.12318
G1 X103.037 Y147.171 E115.40974
G1 X97.243 Y148.174 E115.70311
G1 X91.303 Y149.030 E116.00252
G1 X85.243 Y149.735 E116.30689
G1 X79.086 Y150.286 E116.61529
G1 X72.856 Y150.681 E116.92673
G1 X66.576 Y150.920 E117.24027
G1 X60.300 Y150.999 E117.55340
G1 X60.276 Y151.000 E117.55460
G1 X58.750 Y150.979 E117.63074
G1 X58.750 Y69.018 E121.71979
G1 X60.264 Y69.000 E121.79533
G0 F9000 X60.264 Y68.600
G1 F1800 X66.574 Y68.678 E122.11016
G1 X66.577 Y68.678 E122.11031
G1 X72.854 Y68.917 E122.42370
G1 X79.094 Y69.311 E122.73564
G1 X85.261 Y69.863 E123.04454
G1 X91.332 Y70.569 E123.34946
G1 X97.281 Y71.425 E123.64932
G1 X103.086 Y72.430 E123.94324
G1 X108.726 Y73.580 E124.23041
G1 X114.177 Y74.869 E124.50986
G1 X119.419 Y76.295 E124.78089
G1 X124.432 Y77.850 E125.04274
G1 X129.197 Y79.530 E125.29481
G1 X133.675 Y81.322 E125.53545
G1 X133.717 Y81.339 E125.53771
G1 X137.911 Y83.243 E125.76750
G1 X141.827 Y85.262 E125.98731
G1 X145.430 Y87.382 E126.19587
G1 X148.705 Y89.597 E126.39312
G1 X151.641 Y91.902 E126.57935
G1 X154.225 Y94.291 E126.75492
G1 X156.445 Y96.757 E126.92046
G1 X158.290 Y99.297 E127.07708
G1 X159.743 Y101.899 E127.22576
G1 X160.800 Y104.565 E127.36884
G1 X161.397 Y107.091 E127.49834
G1 X161.439 Y107.269 E127.50746
G1 X161.639 Y109.809 E127.63458
G1 X161.655 Y109.993 E127.64379
G1 X161.439 Y112.728 E127.78066
G1 X160.800 Y115.434 E127.91938
G1 X159.807 Y117.943 E128.05400
G1 X159.744 Y118.099 E128.06240
G1 X158.366 Y120.567 E128.20342
G1 X158.287 Y120.706 E128.21139
G1 X156.530 Y123.125 E128.36055
G1 X156.444 Y123.243 E128.36784
G1 X154.270 Y125.657 E128.52991
G1 X151.728 Y128.016 E128.70293
G1 X151.643 Y128.096 E128.70875
G1 X148.748 Y130.368 E128.89235
G1 X145.470 Y132.590 E129.08992
