;FLAVOR:Repetier
;TIME:599
;MINX:90.8
;MINY:100.8
;MINZ:0.327
;MAXX:129.2
;MAXY:119.2
;MAXZ:20.077
;Generated with Cura_SteamEngine 4.9.1
M190 S50
M104 S215
M109 S215
M82 ;absolute extrusion mode
G28 ;Home
G1 Z15.0 F6000 ;Move the platform down 15mm
;Prime the extruder
G92 E0
G1 F200 E3
G92 E0
G92 E0
G92 E0
G1 F3600 E-4
;LAYER_COUNT:80
;LAYER:0
M107 P1
G0 X92.211 Y101.877 Z0.327
;TYPE:SKIRT
G1 F3600 E0
G1 F1800 X92.669 Y101.521 E0.03155
G1 X93.171 Y101.233 E0.06302
G1 X93.708 Y101.016 E0.09451
G1 X94.27 Y100.875 E0.12602
G1 X94.891 Y100.811 E0.15997
G1 X95.33 Y100.8 E0.18385
G1 X124.353 Y100.8 E1.76213
G1 X125.051 Y100.81 E1.80009
G1 X125.628 Y100.859 E1.83158
G1 X126.194 Y100.986 E1.86313
G1 X126.736 Y101.19 E1.89462
G1 X127.245 Y101.466 E1.92611
G1 X127.711 Y101.81 E1.95761
G1 X128.126 Y102.215 E1.98914
G1 X128.481 Y102.673 E2.02065
G1 X128.769 Y103.175 E2.05212
G1 X128.986 Y103.712 E2.08362
G1 X129.126 Y104.274 E2.11512
G1 X129.189 Y104.892 E2.1489
G1 X129.2 Y105.33 E2.17272
G1 X129.2 Y114.316 E2.66139
G1 X129.191 Y115.043 E2.70092
G1 X129.144 Y115.62 E2.7324
G1 X129.017 Y116.186 E2.76395
G1 X128.815 Y116.728 E2.7954
G1 X128.539 Y117.238 E2.82694
G1 X128.196 Y117.705 E2.85845
G1 X127.792 Y118.12 E2.88994
G1 X127.335 Y118.476 E2.92145
G1 X126.833 Y118.765 E2.95295
G1 X126.296 Y118.983 E2.98446
G1 X125.735 Y119.125 E3.01593
G1 X125.109 Y119.189 E3.05015
G1 X124.67 Y119.2 E3.07403
G1 X95.653 Y119.2 E4.65199
G1 X94.955 Y119.191 E4.68995
G1 X94.377 Y119.143 E4.72149
G1 X93.812 Y119.017 E4.75297
G1 X93.27 Y118.814 E4.78444
G1 X92.76 Y118.538 E4.81597
G1 X92.293 Y118.195 E4.84748
G1 X91.878 Y117.791 E4.87898
G1 X91.523 Y117.333 E4.91049
G1 X91.234 Y116.831 E4.94199
G1 X91.016 Y116.294 E4.97351
G1 X90.875 Y115.733 E5.00496
G1 X90.811 Y115.104 E5.03935
G1 X90.8 Y114.658 E5.06361
G1 X90.8 Y105.617 E5.55526
G1 X90.809 Y104.952 E5.59143
G1 X90.857 Y104.375 E5.62291
G1 X90.984 Y103.81 E5.6544
G1 X91.187 Y103.267 E5.68593
G1 X91.463 Y102.758 E5.71741
G1 X91.807 Y102.291 E5.74896
G1 X92.211 Y101.877 E5.78041
G0 F3600 X92.6 Y102.07
G1 F1800 X93.051 Y101.752 E5.81042
G1 X93.542 Y101.503 E5.84036
G1 X94.065 Y101.328 E5.87035
G1 X94.607 Y101.23 E5.9003
G1 X95.223 Y101.201 E5.93384
G1 X124.347 Y101.2 E7.51761
G1 X125.045 Y101.21 E7.55557
G1 X125.594 Y101.258 E7.58554
G1 X126.131 Y101.385 E7.61555
G1 X126.643 Y101.588 E7.6455
G1 X127.12 Y101.863 E7.67544
G1 X127.553 Y102.204 E7.70541
G1 X127.932 Y102.604 E7.73538
G1 X128.249 Y103.054 E7.76531
G1 X128.498 Y103.546 E7.7953
G1 X128.673 Y104.069 E7.82529
G1 X128.77 Y104.611 E7.85523
G1 X128.798 Y105.223 E7.88855
G1 X128.8 Y105.33 E7.89437
G1 X128.8 Y114.311 E8.38276
G1 X128.791 Y115.038 E8.42229
G1 X128.744 Y115.587 E8.45226
G1 X128.618 Y116.124 E8.48225
G1 X128.416 Y116.636 E8.51218
G1 X128.142 Y117.114 E8.54215
G1 X127.802 Y117.548 E8.57213
G1 X127.403 Y117.927 E8.60205
G1 X126.953 Y118.245 E8.63202
G1 X126.462 Y118.495 E8.66198
G1 X125.94 Y118.671 E8.69194
G1 X125.397 Y118.769 E8.72194
G1 X124.777 Y118.799 E8.7557
G1 X95.658 Y118.8 E10.3392
G1 X94.96 Y118.791 E10.37716
G1 X94.411 Y118.744 E10.40712
G1 X93.875 Y118.618 E10.43707
G1 X93.362 Y118.416 E10.46705
G1 X92.884 Y118.141 E10.49704
G1 X92.451 Y117.801 E10.52697
G1 X92.071 Y117.401 E10.55698
G1 X91.754 Y116.951 E10.58691
G1 X91.504 Y116.46 E10.61687
G1 X91.329 Y115.938 E10.64681
G1 X91.231 Y115.395 E10.67682
G1 X91.201 Y114.761 E10.71133
G1 X91.2 Y105.623 E11.20826
G1 X91.209 Y104.958 E11.24443
G1 X91.257 Y104.409 E11.2744
G1 X91.383 Y103.872 E11.30439
G1 X91.586 Y103.36 E11.33434
G1 X91.86 Y102.882 E11.3643
G1 X92.201 Y102.449 E11.39428
G1 X92.6 Y102.07 E11.4242
G0 F3600 X92.594 Y102.616
G1 F1800 X92.988 Y102.275 E11.45254
G1 X93.429 Y101.998 E11.48086
G1 X93.908 Y101.792 E11.50921
G1 X94.412 Y101.662 E11.53752
G1 X94.914 Y101.61 E11.56496
G1 X95.33 Y101.6 E11.58759
G1 X124.342 Y101.6 E13.16527
G1 X125.04 Y101.61 E13.20323
G1 X125.559 Y101.658 E13.23158
G1 X126.064 Y101.784 E13.25988
G1 X126.545 Y101.986 E13.28825
G1 X126.989 Y102.259 E13.3166
G1 X127.386 Y102.596 E13.34491
G1 X127.726 Y102.991 E13.37326
G1 X128.003 Y103.433 E13.40162
G1 X128.209 Y103.911 E13.42993
G1 X128.339 Y104.416 E13.45828
G1 X128.39 Y104.914 E13.48551
G1 X128.4 Y105.33 E13.50814
G1 X128.4 Y114.306 E13.99625
G1 X128.391 Y115.033 E14.03579
G1 X128.344 Y115.552 E14.06413
G1 X128.219 Y116.058 E14.09247
G1 X128.018 Y116.539 E14.12082
G1 X127.746 Y116.983 E14.14914
G1 X127.409 Y117.381 E14.1775
G1 X127.016 Y117.723 E14.20583
G1 X126.574 Y118 E14.2342
G1 X126.096 Y118.206 E14.2625
G1 X125.591 Y118.338 E14.29089
G1 X125.086 Y118.39 E14.31849
G1 X124.67 Y118.4 E14.34112
G1 X95.663 Y118.4 E15.91853
G1 X94.965 Y118.391 E15.95649
G1 X94.446 Y118.344 E15.98483
G1 X93.94 Y118.219 E16.01317
G1 X93.46 Y118.017 E16.04149
G1 X93.015 Y117.745 E16.06986
G1 X92.618 Y117.408 E16.09817
G1 X92.276 Y117.014 E16.12655
G1 X91.999 Y116.573 E16.15487
G1 X91.793 Y116.094 E16.18322
G1 X91.662 Y115.59 E16.21154
G1 X91.61 Y115.083 E16.23925
G1 X91.6 Y114.658 E16.26237
G1 X91.6 Y105.628 E16.75343
G1 X91.609 Y104.963 E16.78959
G1 X91.656 Y104.444 E16.81793
G1 X91.782 Y103.938 E16.84629
G1 X91.984 Y103.458 E16.87461
G1 X92.256 Y103.013 E16.90297
G1 X92.594 Y102.616 E16.93132
G0 F3600 X92.985 Y102.795
G1 F1800 X93.372 Y102.495 E16.95795
G1 X93.803 Y102.262 E16.9846
G1 X94.265 Y102.103 E17.01117
G1 X94.925 Y102.01 E17.04741
G1 X95.33 Y102 E17.06944
G1 X124.336 Y102 E18.6468
G1 X125.034 Y102.01 E18.68476
G1 X125.521 Y102.057 E18.71137
G1 X125.994 Y102.183 E18.73798
G1 X126.441 Y102.384 E18.76464
G1 X126.849 Y102.654 E18.79124
G1 X127.207 Y102.988 E18.81787
G1 X127.506 Y103.375 E18.84446
G1 X127.739 Y103.806 E18.87111
G1 X127.898 Y104.269 E18.89773
G1 X127.99 Y104.926 E18.9338
G1 X128 Y105.33 E18.95578
G1 X128 Y114.301 E19.44363
G1 X127.991 Y115.028 E19.48316
G1 X127.945 Y115.515 E19.50976
G1 X127.82 Y115.989 E19.53642
G1 X127.62 Y116.436 E19.56305
G1 X127.35 Y116.844 E19.58966
G1 X127.018 Y117.203 E19.61625
G1 X126.631 Y117.503 E19.64288
G1 X126.201 Y117.736 E19.66947
G1 X125.738 Y117.897 E19.69613
G1 X125.075 Y117.99 E19.73254
G1 X124.67 Y118 E19.75457
G1 X95.668 Y118 E21.33171
G1 X94.97 Y117.991 E21.36967
G1 X94.483 Y117.945 E21.39627
G1 X94.01 Y117.82 E21.42287
G1 X93.563 Y117.62 E21.4495
G1 X93.155 Y117.349 E21.47614
G1 X92.796 Y117.016 E21.50277
G1 X92.496 Y116.63 E21.52935
G1 X92.263 Y116.199 E21.55599
G1 X92.103 Y115.737 E21.58258
G1 X92.01 Y115.072 E21.6191
G1 X92 Y114.658 E21.64162
G1 X92 Y105.633 E22.1324
G1 X92.009 Y104.968 E22.16857
G1 X92.056 Y104.481 E22.19517
G1 X92.181 Y104.008 E22.22178
G1 X92.381 Y103.561 E22.24841
G1 X92.652 Y103.153 E22.27504
G1 X92.985 Y102.795 E22.30163
G0 F3600 X93.374 Y102.987
G1 F1800 X93.752 Y102.733 E22.3264
G1 X94.169 Y102.548 E22.3512
G1 X94.611 Y102.44 E22.37595
G1 X95.257 Y102.401 E22.41114
G1 X124.33 Y102.4 E23.99214
G1 X125.028 Y102.41 E24.0301
G1 X125.482 Y102.457 E24.05492
G1 X125.92 Y102.582 E24.07969
G1 X126.329 Y102.781 E24.10443
G1 X126.698 Y103.049 E24.12923
G1 X127.014 Y103.377 E24.15399
G1 X127.268 Y103.755 E24.17876
G1 X127.452 Y104.172 E24.20355
G1 X127.561 Y104.614 E24.2283
G1 X127.599 Y105.257 E24.26333
G1 X127.6 Y114.296 E24.75487
G1 X127.591 Y115.023 E24.79441
G1 X127.545 Y115.477 E24.81923
G1 X127.421 Y115.915 E24.84398
G1 X127.223 Y116.325 E24.86874
G1 X126.956 Y116.694 E24.89351
G1 X126.628 Y117.011 E24.91831
G1 X126.25 Y117.266 E24.94311
G1 X125.834 Y117.451 E24.96787
G1 X125.392 Y117.56 E24.99262
G1 X124.743 Y117.599 E25.02798
G1 X95.673 Y117.6 E26.60882
G1 X94.975 Y117.591 E26.64678
G1 X94.522 Y117.545 E26.67154
G1 X94.084 Y117.421 E26.69629
G1 X93.674 Y117.222 E26.72108
G1 X93.305 Y116.955 E26.74584
G1 X92.988 Y116.627 E26.77065
G1 X92.734 Y116.249 E26.79542
G1 X92.549 Y115.833 E26.82017
G1 X92.44 Y115.39 E26.84498
G1 X92.401 Y114.728 E26.88105
G1 X92.4 Y105.639 E27.37531
G1 X92.409 Y104.974 E27.41147
G1 X92.455 Y104.521 E27.43624
G1 X92.58 Y104.082 E27.46106
G1 X92.779 Y103.672 E27.48584
G1 X93.046 Y103.304 E27.51057
G1 X93.374 Y102.987 E27.53537
G0 F3600 X93.44 Y103.467
G1 F1800 X93.761 Y103.198 E27.55815
G1 X94.127 Y102.994 E27.58093
G1 X94.525 Y102.863 E27.60372
G1 X95.268 Y102.801 E27.64426
G1 X124.325 Y102.8 E29.22439
G1 X125.023 Y102.81 E29.26235
G1 X125.439 Y102.856 E29.28511
G1 X125.839 Y102.98 E29.30789
G1 X126.209 Y103.178 E29.33071
G1 X126.534 Y103.442 E29.35348
G1 X126.803 Y103.763 E29.37625
G1 X127.007 Y104.129 E29.39904
G1 X127.137 Y104.527 E29.42181
G1 X127.199 Y105.268 E29.46224
G1 X127.2 Y114.291 E29.95292
G1 X127.191 Y115.018 E29.99245
G1 X127.146 Y115.435 E30.01526
G1 X127.023 Y115.835 E30.03802
G1 X126.826 Y116.205 E30.06081
G1 X126.562 Y116.531 E30.08363
G1 X126.242 Y116.801 E30.1064
G1 X125.876 Y117.005 E30.12918
G1 X125.478 Y117.136 E30.15197
G1 X124.732 Y117.199 E30.19268
G1 X95.679 Y117.2 E31.77259
G1 X94.981 Y117.191 E31.81055
G1 X94.564 Y117.146 E31.83336
G1 X94.164 Y117.022 E31.85613
G1 X93.794 Y116.825 E31.87893
G1 X93.468 Y116.561 E31.90174
G1 X93.198 Y116.241 E31.92451
G1 X92.994 Y115.875 E31.94729
G1 X92.863 Y115.477 E31.97008
G1 X92.801 Y114.717 E32.01155
G1 X92.8 Y105.644 E32.50494
G1 X92.809 Y104.979 E32.5411
G1 X92.855 Y104.563 E32.56386
G1 X92.978 Y104.162 E32.58667
G1 X93.176 Y103.793 E32.60945
G1 X93.44 Y103.467 E32.63226
G0 F3600 X93.831 Y103.648
G1 F1800 X94.142 Y103.432 E32.65285
G1 X94.491 Y103.285 E32.67344
G1 X94.959 Y103.21 E32.69922
G1 X95.33 Y103.2 E32.7194
G1 X124.319 Y103.2 E34.29583
G1 X125.017 Y103.21 E34.33379
G1 X125.393 Y103.255 E34.35439
G1 X125.751 Y103.379 E34.37499
G1 X126.076 Y103.574 E34.3956
G1 X126.353 Y103.833 E34.41622
G1 X126.569 Y104.144 E34.43681
G1 X126.715 Y104.494 E34.45744
G1 X126.79 Y104.959 E34.48305
G1 X126.8 Y105.33 E34.50323
G1 X126.8 Y114.286 E34.99026
G1 X126.791 Y115.013 E35.0298
G1 X126.746 Y115.39 E35.05045
G1 X126.624 Y115.748 E35.07101
G1 X126.429 Y116.073 E35.09162
G1 X126.171 Y116.35 E35.11221
G1 X125.86 Y116.567 E35.13283
G1 X125.511 Y116.714 E35.15343
G1 X125.041 Y116.79 E35.17932
G1 X124.67 Y116.8 E35.1995
G1 X95.684 Y116.8 E36.77577
G1 X94.986 Y116.791 E36.81373
G1 X94.609 Y116.746 E36.83437
G1 X94.251 Y116.624 E36.85494
G1 X93.926 Y116.429 E36.87555
G1 X93.649 Y116.17 E36.89618
G1 X93.432 Y115.859 E36.9168
G1 X93.285 Y115.51 E36.93739
G1 X93.21 Y115.04 E36.96327
G1 X93.2 Y114.658 E36.98405
G1 X93.2 Y105.65 E37.47391
G1 X93.209 Y104.985 E37.51008
G1 X93.254 Y104.608 E37.53072
G1 X93.377 Y104.25 E37.55131
G1 X93.572 Y103.925 E37.57192
G1 X93.831 Y103.648 E37.59254
G0 F3600 X93.967 Y104.074
G1 F1800 X94.218 Y103.854 E37.61069
G1 X94.514 Y103.699 E37.62886
G1 X94.97 Y103.61 E37.65413
G1 X95.33 Y103.6 E37.67371
G1 X124.313 Y103.6 E39.24982
G1 X125.011 Y103.61 E39.28778
G1 X125.342 Y103.655 E39.30594
G1 X125.653 Y103.777 E39.32411
G1 X125.927 Y103.969 E39.34231
G1 X126.147 Y104.22 E39.36046
G1 X126.301 Y104.516 E39.3786
G1 X126.39 Y104.971 E39.40381
G1 X126.4 Y105.33 E39.42334
G1 X126.4 Y114.281 E39.9101
G1 X126.391 Y115.008 E39.94964
G1 X126.347 Y115.339 E39.9678
G1 X126.226 Y115.651 E39.986
G1 X126.034 Y115.925 E40.00419
G1 X125.783 Y116.145 E40.02234
G1 X125.487 Y116.3 E40.04051
G1 X125.03 Y116.39 E40.06584
G1 X124.67 Y116.4 E40.08542
G1 X95.689 Y116.4 E41.66142
G1 X94.991 Y116.391 E41.69938
G1 X94.66 Y116.347 E41.71754
G1 X94.349 Y116.225 E41.73571
G1 X94.075 Y116.034 E41.75387
G1 X93.854 Y115.783 E41.77205
G1 X93.7 Y115.487 E41.7902
G1 X93.61 Y115.029 E41.81558
G1 X93.6 Y114.658 E41.83576
G1 X93.6 Y105.655 E42.32535
G1 X93.609 Y104.99 E42.36152
G1 X93.653 Y104.659 E42.37967
G1 X93.775 Y104.348 E42.39784
G1 X93.967 Y104.074 E42.41604
G0 F3600 X94.359 Y104.249
G1 F1800 X94.597 Y104.098 E42.43136
G1 X94.981 Y104.009 E42.4528
G1 X95.302 Y104 E42.47026
G1 X124.307 Y104 E44.04756
G1 X125.005 Y104.01 E44.08552
G1 X125.284 Y104.054 E44.10088
G1 X125.539 Y104.174 E44.11621
G1 X125.751 Y104.36 E44.13155
G1 X125.902 Y104.598 E44.14687
G1 X125.991 Y104.982 E44.16831
G1 X126 Y105.302 E44.18572
G1 X126 Y114.276 E44.67373
G1 X125.991 Y115.003 E44.71327
G1 X125.948 Y115.282 E44.72862
G1 X125.828 Y115.538 E44.74399
G1 X125.642 Y115.75 E44.75933
G1 X125.404 Y115.902 E44.77469
G1 X125.019 Y115.991 E44.79617
G1 X124.698 Y116 E44.81364
G1 X95.694 Y116 E46.39088
G1 X94.996 Y115.991 E46.42884
G1 X94.717 Y115.948 E46.4442
G1 X94.462 Y115.828 E46.45952
G1 X94.25 Y115.642 E46.47486
G1 X94.098 Y115.404 E46.49021
G1 X94.009 Y115.018 E46.51176
G1 X94 Y114.685 E46.52987
G1 X94 Y105.66 E47.02065
G1 X94.009 Y104.995 E47.05682
G1 X94.053 Y104.717 E47.07213
G1 X94.172 Y104.461 E47.08748
G1 X94.359 Y104.249 E47.10285
G0 F3600 X94.568 Y104.602
G1 F1800 X94.742 Y104.471 E47.11469
G1 X94.992 Y104.409 E47.1287
G1 X95.313 Y104.4 E47.14616
G1 X124.302 Y104.4 E48.7226
G1 X125 Y104.41 E48.76056
G1 X125.214 Y104.453 E48.77243
G1 X125.398 Y104.569 E48.78426
G1 X125.529 Y104.744 E48.79614
G1 X125.591 Y104.993 E48.8101
G1 X125.6 Y105.313 E48.82751
G1 X125.6 Y114.271 E49.31464
G1 X125.591 Y114.998 E49.35418
G1 X125.549 Y115.212 E49.36604
G1 X125.433 Y115.397 E49.37792
G1 X125.258 Y115.528 E49.3898
G1 X125.008 Y115.591 E49.40382
G1 X124.687 Y115.6 E49.42129
G1 X95.699 Y115.6 E50.99766
G1 X95.001 Y115.591 E51.03562
G1 X94.787 Y115.549 E51.04748
G1 X94.603 Y115.432 E51.05934
G1 X94.472 Y115.258 E51.07118
G1 X94.409 Y115.007 E51.08526
G1 X94.4 Y114.674 E51.10337
G1 X94.4 Y105.666 E51.59323
G1 X94.409 Y105.001 E51.6294
G1 X94.452 Y104.787 E51.64127
G1 X94.568 Y104.602 E51.65314
G0 F3600 X94.85 Y104.888
G1 F1800 X95.003 Y104.809 E51.66251
G1 X95.324 Y104.8 E51.67997
G1 X124.296 Y104.8 E53.25548
G1 X124.994 Y104.81 E53.29344
G1 X125.112 Y104.851 E53.30023
G1 X125.191 Y105.004 E53.30959
G1 X125.2 Y105.324 E53.327
G1 X125.2 Y114.266 E53.81327
G1 X125.191 Y114.993 E53.85281
G1 X125.151 Y115.112 E53.85964
G1 X124.997 Y115.191 E53.86905
G1 X124.676 Y115.2 E53.88651
G1 X95.704 Y115.2 E55.46202
G1 X95.006 Y115.191 E55.49998
G1 X94.888 Y115.15 E55.50677
G1 X94.809 Y114.996 E55.51618
G1 X94.8 Y114.663 E55.5343
G1 X94.8 Y105.671 E56.02329
G1 X94.809 Y105.006 E56.05945
G1 X94.85 Y104.888 E56.06625
G1 F3600 E52.06625
;MESH:test.stl
G0 X124.7 Y114.73
G0 X124.8 Y114.8
;TYPE:WALL-OUTER
G1 F3600 E56.06625
G1 F1800 X95.2 Y114.8 E57.6759
G1 X95.2 Y105.2 E58.19795
G1 X124.8 Y105.2 E59.80761
G1 X124.8 Y114.8 E60.32966
G0 F3600 X124.6 Y114.8
G0 X124.41 Y114.41
;TYPE:SKIN
G1 F1800 X95.59 Y114.41 E61.8969
G1 X95.59 Y105.59 E62.37654
G1 X124.41 Y105.59 E63.94378
G1 X124.41 Y114.41 E64.42341
G0 F3600 X124.229 Y106.127
G1 F1800 X123.871 Y105.769 E64.45095
G0 F3600 X123.305 Y105.769
G1 F1800 X124.229 Y106.693 E64.52201
G0 F3600 X124.229 Y107.258
G1 F1800 X122.74 Y105.769 E64.63652
G0 F3600 X122.174 Y105.769
G1 F1800 X124.229 Y107.824 E64.79456
G0 F3600 X124.229 Y108.39
G1 F1800 X121.608 Y105.769 E64.99613
G0 F3600 X121.043 Y105.769
G1 F1800 X124.229 Y108.955 E65.24115
G0 F3600 X124.229 Y109.521
G1 F1800 X120.477 Y105.769 E65.5297
G0 F3600 X119.911 Y105.769
G1 F1800 X124.229 Y110.087 E65.86177
G0 F3600 X124.229 Y110.653
G1 F1800 X119.346 Y105.769 E66.23734
G0 F3600 X118.78 Y105.769
G1 F1800 X124.229 Y111.218 E66.6564
G0 F3600 X124.229 Y111.784
G1 F1800 X118.214 Y105.769 E67.11899
G0 F3600 X117.649 Y105.769
G1 F1800 X124.229 Y112.35 E67.62506
G0 F3600 X124.229 Y112.915
G1 F1800 X117.083 Y105.769 E68.17463
G0 F3600 X116.517 Y105.769
G1 F1800 X124.229 Y113.481 E68.76772
G0 F3600 X124.229 Y114.047
G1 F1800 X115.952 Y105.769 E69.40431
G0 F3600 X115.386 Y105.769
G1 F1800 X123.846 Y114.229 E70.05493
G0 F3600 X123.28 Y114.229
G1 F1800 X114.82 Y105.769 E70.70555
G0 F3600 X114.255 Y105.769
G1 F1800 X122.714 Y114.229 E71.35613
G0 F3600 X122.149 Y114.229
G1 F1800 X113.689 Y105.769 E72.00675
G0 F3600 X113.123 Y105.769
G1 F1800 X121.583 Y114.229 E72.65737
G0 F3600 X121.017 Y114.229
G1 F1800 X112.557 Y105.769 E73.30799
G0 F3600 X111.992 Y105.769
G1 F1800 X120.452 Y114.229 E73.9586
G0 F3600 X119.886 Y114.229
G1 F1800 X111.426 Y105.769 E74.60922
G0 F3600 X110.86 Y105.769
G1 F1800 X119.32 Y114.229 E75.25984
G0 F3600 X118.755 Y114.229
G1 F1800 X110.295 Y105.769 E75.91046
G0 F3600 X109.729 Y105.769
