;Generated with Cura_SteamEngine 15.05
; Default start code
G28 ; Home extruder
G1 Z15 F100
M107 ; Turn off fan
G90 ; Absolute positioning
M82 ; Extruder in absolute mode
M190 S50
; Activate all used extruder
M104 T0 S250
G92 E0 ; Reset extruder position
; Wait for all used extruders to reach temperature
M109 T0 S250
;Layer count: 239
;LAYER:0
M107
G0 F4800 X44.069 Y96.209 Z0.300
;TYPE:SKIRT
G1 F1800 X45.198 Y95.898 E0.05842
G1 X46.111 Y95.855 E0.10402
G1 X46.824 Y95.915 E0.13972
G1 X47.694 Y96.085 E0.18395
G1 X48.543 Y96.347 E0.22827
G1 X49.381 Y96.696 E0.27356
G1 X50.161 Y97.119 E0.31783
G1 X50.799 Y97.550 E0.35624
G1 X51.578 Y98.229 E0.40780
G1 X52.085 Y98.802 E0.44597
G1 X52.562 Y99.476 E0.48717
G1 X52.989 Y100.270 E0.53214
G1 X53.291 Y101.024 E0.57267
G1 X53.475 Y101.562 E0.60103
G1 X53.562 Y101.792 E0.61330
G1 X53.651 Y101.971 E0.62328
G1 X53.699 Y102.036 E0.62731
G1 X53.738 Y102.058 E0.62954
G1 X53.867 Y102.113 E0.63654
G1 X54.155 Y102.200 E0.65155
G1 X54.441 Y102.265 E0.66618
G1 X54.875 Y102.344 E0.68819
G1 X55.272 Y102.401 E0.70820
G1 X55.646 Y102.443 E0.72697
G1 X56.180 Y102.493 E0.75373
G1 X56.745 Y102.536 E0.78200
G1 X57.353 Y102.571 E0.81238
G1 X57.843 Y102.594 E0.83686
G1 X58.281 Y102.611 E0.85873
G1 X58.281 Y102.610 E0.85877
G1 X58.813 Y102.625 E0.88533
G1 X58.813 Y102.626 E0.88538
G1 X59.292 Y102.636 E0.90928
G1 X59.292 Y102.635 E0.90933
G1 X59.875 Y102.644 E0.93842
G1 X60.464 Y102.650 E0.96781
G1 X61.083 Y102.653 E0.99869
G1 X61.438 Y102.654 E1.01640
G1 X62.018 Y102.653 E1.04534
G1 X62.626 Y102.648 E1.07567
G1 X63.225 Y102.640 E1.10556
G1 X63.747 Y102.630 E1.13160
G1 X63.747 Y102.629 E1.13165
G1 X64.294 Y102.614 E1.15895
G1 X64.294 Y102.615 E1.15900
G1 X64.756 Y102.600 E1.18207
G1 X65.281 Y102.577 E1.20828
G1 X65.873 Y102.545 E1.23786
G1 X66.473 Y102.504 E1.26787
G1 X66.997 Y102.459 E1.29410
G1 X67.452 Y102.409 E1.31694
G1 X67.870 Y102.353 E1.33798
G1 X68.276 Y102.286 E1.35851
G1 X68.626 Y102.210 E1.37638
G1 X68.967 Y102.114 E1.39405
G1 X69.143 Y102.038 E1.40362
G1 X69.155 Y102.031 E1.40431
G1 X69.169 Y102.016 E1.40533
G1 X69.213 Y101.952 E1.40921
G1 X69.295 Y101.787 E1.41840
G1 X69.389 Y101.541 E1.43154
G1 X69.560 Y101.038 E1.45804
G1 X69.853 Y100.295 E1.49789
G1 X70.209 Y99.610 E1.53641
G1 X70.674 Y98.910 E1.57833
G1 X71.343 Y98.150 E1.62885
G1 X72.052 Y97.538 E1.67557
G1 X72.824 Y97.022 E1.72190
G1 X73.638 Y96.602 E1.76760
G1 X74.478 Y96.270 E1.81266
G1 X75.307 Y96.032 E1.85569
G1 X75.863 Y95.922 E1.88397
G1 X76.524 Y95.846 E1.91716
G1 X77.146 Y95.837 E1.94820
G1 X78.014 Y95.944 E1.99183
G1 X79.016 Y96.307 E2.04500
G1 X79.811 Y96.869 E2.09357
G1 X80.409 Y97.532 E2.13811
G1 X80.889 Y98.430 E2.18891
G1 X81.091 Y99.349 E2.23586
G1 X81.104 Y100.085 E2.27258
G1 X80.957 Y100.994 E2.31852
G1 X80.445 Y102.102 E2.37942
G1 X80.053 Y102.690 E2.41467
G1 X79.806 Y103.022 E2.43532
G1 X79.036 Y103.998 E2.49734
G1 X78.798 Y104.327 E2.51760
G1 X78.721 Y104.450 E2.52484
G1 X78.795 Y104.890 E2.54710
G1 X78.896 Y105.669 E2.58629
G1 X78.931 Y106.569 E2.63122
G1 X78.820 Y107.663 E2.68608
G1 X78.543 Y108.690 E2.73915
G1 X78.139 Y109.625 E2.78997
G1 X77.922 Y109.989 E2.81111
G1 X78.300 Y110.693 E2.85098
G1 X78.672 Y111.686 E2.90388
G1 X78.893 Y112.813 E2.96118
G1 X78.935 Y113.784 E3.00966
G1 X78.848 Y114.782 E3.05964
G1 X78.752 Y115.376 E3.08966
G1 X78.730 Y115.539 E3.09787
G1 X78.829 Y115.693 E3.10700
G1 X79.176 Y116.157 E3.13591
G1 X79.518 Y116.586 E3.16328
G1 X79.936 Y117.125 E3.19731
G1 X80.407 Y117.813 E3.23891
G1 X80.697 Y118.351 E3.26940
G1 X80.938 Y118.971 E3.30259
G1 X81.088 Y119.650 E3.33728
G1 X81.125 Y120.459 E3.37768
G1 X80.971 Y121.295 E3.42009
G1 X80.589 Y122.222 E3.47011
G1 X79.841 Y123.127 E3.52869
G1 X78.777 Y123.819 E3.59201
G1 X77.568 Y124.125 E3.65423
G1 X76.737 Y124.153 E3.69571
G1 X76.043 Y124.094 E3.73046
G1 X75.181 Y123.924 E3.77430
G1 X74.332 Y123.665 E3.81858
G1 X73.489 Y123.313 E3.86416
G1 X72.711 Y122.891 E3.90831
G1 X72.072 Y122.459 E3.94679
G1 X71.273 Y121.762 E3.99969
G1 X70.674 Y121.066 E4.04550
G1 X70.198 Y120.353 E4.08828
G1 X69.770 Y119.481 E4.13674
G1 X69.509 Y118.782 E4.17396
G1 X69.369 Y118.373 E4.19553
G1 X69.258 Y118.108 E4.20986
G1 X69.191 Y117.993 E4.21650
G1 X69.165 Y117.967 E4.21834
G1 X69.128 Y117.946 E4.22046
G1 X69.010 Y117.896 E4.22685
G1 X68.708 Y117.805 E4.24259
G1 X68.414 Y117.738 E4.25763
G1 X68.016 Y117.666 E4.27781
G1 X67.594 Y117.605 E4.29909
G1 X67.189 Y117.558 E4.31943
G1 X66.732 Y117.516 E4.34232
G1 X66.128 Y117.470 E4.37254
G1 X65.516 Y117.435 E4.40313
G1 X65.030 Y117.412 E4.42740
G1 X64.585 Y117.395 E4.44962
G1 X64.115 Y117.381 E4.47308
G1 X63.558 Y117.369 E4.50087
G1 X63.018 Y117.359 E4.52782
G1 X63.018 Y117.360 E4.52787
G1 X62.408 Y117.354 E4.55830
G1 X61.789 Y117.351 E4.58918
G1 X61.161 Y117.350 E4.62051
G1 X60.549 Y117.353 E4.65105
G1 X59.950 Y117.360 E4.68093
G1 X59.364 Y117.369 E4.71017
G1 X58.833 Y117.381 E4.73667
G1 X58.343 Y117.395 E4.76113
G1 X58.343 Y117.396 E4.76118
G1 X57.863 Y117.413 E4.78514
G1 X57.372 Y117.437 E4.80967
G1 X56.801 Y117.469 E4.83820
G1 X56.229 Y117.512 E4.86681
G1 X55.711 Y117.560 E4.89277
G1 X55.280 Y117.610 E4.91442
G1 X54.895 Y117.665 E4.93382
G1 X54.480 Y117.738 E4.95484
G1 X54.194 Y117.804 E4.96948
G1 X53.888 Y117.895 E4.98541
G1 X53.726 Y117.964 E4.99420
G1 X53.712 Y117.973 E4.99503
G1 X53.665 Y118.031 E4.99875
G1 X53.637 Y118.078 E5.00148
G1 X53.589 Y118.178 E5.00701
G1 X53.451 Y118.552 E5.02690
G1 X53.235 Y119.177 E5.05989
G1 X52.858 Y120.038 E5.10679
G1 X52.353 Y120.874 E5.15551
G1 X51.783 Y121.586 E5.20102
G1 X51.017 Y122.306 E5.25346
G1 X50.230 Y122.867 E5.30168
G1 X49.440 Y123.299 E5.34660
G1 X48.607 Y123.654 E5.39178
G1 X47.737 Y123.925 E5.43724
G1 X46.889 Y124.096 E5.48040
G1 X46.324 Y124.153 E5.50873
G1 X45.627 Y124.164 E5.54351
G1 X44.246 Y123.916 E5.61351
G1 X42.884 Y123.032 E5.69452
G1 X42.121 Y121.920 E5.76180
G1 X41.806 Y120.898 E5.81515
G1 X41.755 Y119.983 E5.86087
G1 X41.917 Y118.969 E5.91210
G1 X42.528 Y117.722 E5.98138
G1 X43.043 Y117.004 E6.02547
G1 X43.836 Y115.998 E6.08937
G1 X44.068 Y115.679 E6.10905
G1 X44.150 Y115.548 E6.11676
G1 X44.077 Y115.112 E6.13882
G1 X43.977 Y114.339 E6.17770
G1 X43.939 Y113.453 E6.22195
G1 X44.052 Y112.342 E6.27766
G1 X44.328 Y111.313 E6.33081
G1 X44.731 Y110.382 E6.38143
G1 X44.949 Y110.016 E6.40268
G1 X44.568 Y109.308 E6.44279
G1 X44.200 Y108.317 E6.49553
G1 X43.980 Y107.196 E6.55253
G1 X43.936 Y106.223 E6.60112
G1 X44.024 Y105.220 E6.65135
G1 X44.124 Y104.601 E6.68263
G1 X44.143 Y104.472 E6.68914
G1 X44.085 Y104.380 E6.69456
G1 X43.844 Y104.046 E6.71511
G1 X43.557 Y103.678 E6.73840
G1 X43.165 Y103.184 E6.76986
G1 X42.844 Y102.763 E6.79627
G1 X42.692 Y102.543 E6.80961
G1 X42.253 Y101.846 E6.85071
G1 X41.817 Y100.713 E6.91127
G1 X41.720 Y99.374 E6.97825
G1 X42.177 Y97.913 E7.05462
G1 X43.034 Y96.875 E7.12178
G1 X44.069 Y96.209 E7.18318
G0 F4800 X44.234 Y96.579
G1 F1800 X45.262 Y96.295 E7.23639
G1 X46.103 Y96.256 E7.27839
G1 X46.769 Y96.312 E7.31174
G1 X47.596 Y96.474 E7.35378
G1 X48.407 Y96.724 E7.39612
G1 X49.208 Y97.057 E7.43940
G1 X49.953 Y97.462 E7.48170
G1 X50.555 Y97.868 E7.51793
G1 X51.296 Y98.514 E7.56697
G1 X51.771 Y99.051 E7.60274
G1 X52.222 Y99.687 E7.64164
G1 X52.626 Y100.439 E7.68423
G1 X52.916 Y101.163 E7.72314
G1 X53.089 Y101.669 E7.74982
G1 X53.197 Y101.957 E7.76516
G1 X53.307 Y102.178 E7.77748
G1 X53.403 Y102.309 E7.78558
G1 X53.444 Y102.351 E7.78851
G1 X53.567 Y102.421 E7.79557
G1 X53.724 Y102.487 E7.80407
G1 X54.043 Y102.584 E7.82070
G1 X54.383 Y102.662 E7.83811
G1 X54.804 Y102.738 E7.85945
G1 X55.203 Y102.795 E7.87956
G1 X55.662 Y102.847 E7.90260
G1 X56.117 Y102.889 E7.92540
G1 X56.688 Y102.933 E7.95397
G1 X57.349 Y102.971 E7.98700
G1 X57.349 Y102.972 E7.98705
G1 X57.793 Y102.993 E8.00923
G1 X57.793 Y102.992 E8.00928
G1 X58.283 Y103.010 E8.03374
G1 X58.802 Y103.025 E8.05965
G1 X59.285 Y103.036 E8.08375
G1 X59.285 Y103.035 E8.08380
G1 X59.868 Y103.044 E8.11289
G1 X60.460 Y103.050 E8.14243
G1 X61.081 Y103.053 E8.17341
G1 X61.438 Y103.054 E8.19122
G1 X62.021 Y103.053 E8.22030
G1 X62.631 Y103.048 E8.25074
G1 X63.230 Y103.040 E8.28063
G1 X63.758 Y103.029 E8.30697
G1 X64.305 Y103.014 E8.33427
G1 X64.305 Y103.015 E8.33432
G1 X64.774 Y103.000 E8.35773
G1 X65.299 Y102.977 E8.38395
G1 X65.887 Y102.946 E8.41333
G1 X65.887 Y102.945 E8.41338
G1 X66.529 Y102.901 E8.44548
G1 X67.027 Y102.858 E8.47042
G1 X67.469 Y102.810 E8.49260
G1 X67.928 Y102.748 E8.51571
G1 X68.360 Y102.677 E8.53755
G1 X68.725 Y102.598 E8.55618
G1 X69.097 Y102.493 E8.57547
G1 X69.324 Y102.395 E8.58780
G1 X69.403 Y102.348 E8.59239
G1 X69.413 Y102.340 E8.59303
G1 X69.481 Y102.267 E8.59800
G1 X69.560 Y102.153 E8.60492
G1 X69.662 Y101.950 E8.61626
G1 X69.769 Y101.666 E8.63140
G1 X69.935 Y101.176 E8.65721
G1 X70.218 Y100.461 E8.69557
G1 X70.554 Y99.813 E8.73199
G1 X70.992 Y99.154 E8.77147
G1 X71.626 Y98.434 E8.81933
G1 X72.294 Y97.857 E8.86337
G1 X73.027 Y97.368 E8.90733
G1 X73.804 Y96.967 E8.95095
G1 X74.607 Y96.649 E8.99404
G1 X75.401 Y96.421 E9.03525
G1 X75.925 Y96.318 E9.06190
G1 X76.550 Y96.246 E9.09328
G1 X77.125 Y96.237 E9.12197
G1 X77.921 Y96.336 E9.16199
G1 X78.829 Y96.664 E9.21016
G1 X79.544 Y97.170 E9.25386
G1 X80.079 Y97.764 E9.29374
G1 X80.511 Y98.570 E9.33936
G1 X80.692 Y99.396 E9.38155
G1 X80.704 Y100.056 E9.41448
G1 X80.571 Y100.876 E9.45593
G1 X80.095 Y101.906 E9.51254
G1 X79.726 Y102.459 E9.54571
G1 X79.488 Y102.778 E9.56556
G1 X78.713 Y103.763 E9.62809
G1 X78.465 Y104.106 E9.64921
G1 X78.318 Y104.342 E9.66308
G1 X78.307 Y104.364 E9.66431
G1 X78.315 Y104.448 E9.66852
G1 X78.399 Y104.949 E9.69386
G1 X78.497 Y105.702 E9.73174
G1 X78.530 Y106.557 E9.77443
G1 X78.425 Y107.590 E9.82623
G1 X78.164 Y108.558 E9.87625
G1 X77.782 Y109.442 E9.92430
G1 X77.459 Y109.984 E9.95578
G1 X77.489 Y110.028 E9.95843
G1 X77.935 Y110.859 E10.00548
G1 X78.285 Y111.796 E10.05539
G1 X78.495 Y112.861 E10.10954
G1 X78.534 Y113.776 E10.15523
G1 X78.451 Y114.733 E10.20316
G1 X78.350 Y115.357 E10.23469
G1 X78.315 Y115.622 E10.24803
G1 X78.345 Y115.683 E10.25142
G1 X78.505 Y115.930 E10.26610
G1 X78.844 Y116.384 E10.29437
G1 X79.203 Y116.834 E10.32309
G1 X79.613 Y117.361 E10.35640
G1 X80.065 Y118.022 E10.39635
G1 X80.333 Y118.519 E10.42452
G1 X80.554 Y119.087 E10.45493
G1 X80.690 Y119.703 E10.48640
G1 X80.723 Y120.431 E10.52276
G1 X80.586 Y121.182 E10.56085
G1 X80.242 Y122.013 E10.60572
G1 X79.571 Y122.826 E10.65831
G1 X78.615 Y123.447 E10.71518
G1 X77.512 Y123.726 E10.77195
G1 X76.747 Y123.753 E10.81013
G1 X76.099 Y123.697 E10.84258
G1 X75.278 Y123.535 E10.88433
G1 X74.467 Y123.289 E10.92662
G1 X73.662 Y122.952 E10.97015
G1 X72.919 Y122.548 E11.01235
G1 X72.317 Y122.142 E11.04857
G1 X71.557 Y121.479 E11.09889
G1 X70.993 Y120.823 E11.14205
G1 X70.546 Y120.153 E11.18223
G1 X70.137 Y119.323 E11.22840
G1 X69.886 Y118.647 E11.26437
G1 X69.739 Y118.222 E11.28681
G1 X69.620 Y117.936 E11.30226
G1 X69.520 Y117.763 E11.31223
G1 X69.495 Y117.731 E11.31426
G1 X69.410 Y117.646 E11.32026
G1 X69.305 Y117.587 E11.32626
G1 X69.142 Y117.518 E11.33510
G1 X68.824 Y117.422 E11.35167
G1 X68.492 Y117.346 E11.36866
G1 X68.060 Y117.268 E11.39056
G1 X67.661 Y117.211 E11.41067
G1 X67.227 Y117.160 E11.43247
G1 X66.751 Y117.116 E11.45632
G1 X66.185 Y117.073 E11.48464
G1 X65.524 Y117.035 E11.51767
G1 X65.524 Y117.034 E11.51772
G1 X65.079 Y117.013 E11.53995
G1 X65.079 Y117.014 E11.54000
G1 X64.597 Y116.996 E11.56406
G1 X64.097 Y116.981 E11.58902
G1 X64.097 Y116.980 E11.58907
G1 X63.581 Y116.969 E11.61482
G1 X63.581 Y116.970 E11.61487
G1 X62.998 Y116.960 E11.64396
G1 X62.412 Y116.954 E11.67319
G1 X61.791 Y116.951 E11.70417
G1 X61.159 Y116.950 E11.73571
G1 X60.545 Y116.953 E11.76634
G1 X59.944 Y116.960 E11.79632
G1 X59.358 Y116.969 E11.82556
G1 X58.845 Y116.980 E11.85116
G1 X58.845 Y116.981 E11.85121
G1 X58.312 Y116.997 E11.87782
G1 X57.828 Y117.014 E11.90198
G1 X57.378 Y117.036 E11.92446
G1 X56.749 Y117.072 E11.95589
G1 X56.162 Y117.116 E11.98526
G1 X55.714 Y117.157 E12.00770
G1 X55.218 Y117.215 E12.03261
G1 X54.826 Y117.271 E12.05237
G1 X54.403 Y117.346 E12.07380
G1 X54.089 Y117.418 E12.08987
G1 X53.757 Y117.516 E12.10714
G1 X53.540 Y117.610 E12.11894
G1 X53.460 Y117.656 E12.12355
G1 X53.427 Y117.687 E12.12581
G1 X53.336 Y117.802 E12.13312
G1 X53.284 Y117.887 E12.13809
G1 X53.218 Y118.025 E12.14572
G1 X53.062 Y118.451 E12.16836
G1 X52.862 Y119.031 E12.19897
G1 X52.502 Y119.853 E12.24374
G1 X52.024 Y120.645 E12.28989
G1 X51.488 Y121.314 E12.33266
G1 X50.763 Y121.996 E12.38232
G1 X50.017 Y122.527 E12.42800
G1 X49.265 Y122.939 E12.47078
G1 X48.468 Y123.278 E12.51399
G1 X47.638 Y123.537 E12.55737
G1 X46.829 Y123.700 E12.59854
G1 X46.300 Y123.754 E12.62507
G1 X45.660 Y123.763 E12.65700
G1 X44.396 Y123.537 E12.72106
G1 X43.169 Y122.740 E12.79406
G1 X42.485 Y121.744 E12.85434
G1 X42.203 Y120.827 E12.90220
G1 X42.157 Y120.004 E12.94332
G1 X42.303 Y119.091 E12.98945
G1 X42.872 Y117.928 E13.05405
G1 X43.363 Y117.245 E13.09601
G1 X44.153 Y116.241 E13.15975
G1 X44.410 Y115.888 E13.18154
G1 X44.546 Y115.669 E13.19440
G1 X44.564 Y115.633 E13.19640
G1 X44.556 Y115.546 E13.20076
G1 X44.473 Y115.053 E13.22571
G1 X44.376 Y114.305 E13.26334
G1 X44.340 Y113.464 E13.30533
G1 X44.446 Y112.415 E13.35793
G1 X44.706 Y111.446 E13.40799
G1 X45.088 Y110.564 E13.45594
G1 X45.411 Y110.020 E13.48750
G1 X45.381 Y109.976 E13.49016
G1 X44.934 Y109.143 E13.53732
G1 X44.586 Y108.208 E13.58710
G1 X44.378 Y107.149 E13.64094
G1 X44.337 Y106.231 E13.68679
G1 X44.421 Y105.270 E13.73491
G1 X44.520 Y104.658 E13.76584
G1 X44.559 Y104.388 E13.77945
G1 X44.549 Y104.367 E13.78061
G1 X44.416 Y104.155 E13.79310
G1 X44.165 Y103.806 E13.81455
G1 X43.871 Y103.429 E13.83840
G1 X43.870 Y103.429 E13.83845
G1 X43.480 Y102.938 E13.86973
G1 X43.168 Y102.528 E13.89544
G1 X43.026 Y102.323 E13.90788
G1 X42.612 Y101.666 E13.94662
G1 X42.212 Y100.625 E14.00226
G1 X42.124 Y99.421 E14.06249
G1 X42.536 Y98.108 E14.13114
G1 X43.303 Y97.178 E14.19128
G1 X44.234 Y96.579 E14.24651
G1 F2400 E10.24651
G0 F4800 X46.242 Y100.081
;TYPE:WALL-INNER
G1 F2400 E14.24651
G1 F1800 X46.673 Y100.166 E14.26843
G1 X47.110 Y100.300 E14.29123
G1 X47.572 Y100.493 E14.31621
G1 X47.976 Y100.712 E14.33914
G1 X48.237 Y100.888 E14.35485
G1 X48.611 Y101.215 E14.37963
G1 X48.787 Y101.412 E14.39281
G1 X48.985 Y101.692 E14.40992
G1 X49.179 Y102.054 E14.43041
G1 X49.351 Y102.482 E14.45342
G1 X49.515 Y102.963 E14.47878
G1 X49.707 Y103.473 E14.50596
G1 X49.998 Y104.059 E14.53860
G1 X50.112 Y104.249 E14.54966
G1 X50.495 Y104.768 E14.58184
G1 X50.867 Y105.153 E14.60855
G1 X51.219 Y105.439 E14.63118
G1 X51.385 Y105.553 E14.64122
G1 X51.885 Y105.835 E14.66986
G1 X52.390 Y106.049 E14.69723
G1 X53.078 Y106.261 E14.73314
G1 X53.611 Y106.384 E14.76043
G1 X54.206 Y106.491 E14.79059
G1 X54.721 Y106.565 E14.81655
G1 X55.237 Y106.624 E14.84246
G1 X55.819 Y106.678 E14.87162
G1 X56.450 Y106.726 E14.90319
G1 X57.133 Y106.765 E14.93732
G1 X57.648 Y106.789 E14.96305
G1 X58.160 Y106.809 E14.98861
G1 X58.697 Y106.824 E15.01541
G1 X59.225 Y106.835 E15.04176
G1 X59.811 Y106.844 E15.07100
G1 X60.425 Y106.850 E15.10163
G1 X61.064 Y106.853 E15.13351
G1 X61.434 Y106.854 E15.15197
G1 X62.050 Y106.853 E15.18270
G1 X62.680 Y106.848 E15.21414
G1 X63.283 Y106.840 E15.24422
G1 X63.861 Y106.828 E15.27306
G1 X64.410 Y106.813 E15.30046
G1 X64.936 Y106.797 E15.32672
G1 X65.468 Y106.773 E15.35329
G1 X66.143 Y106.737 E15.38701
G1 X66.794 Y106.692 E15.41957
G1 X67.397 Y106.640 E15.44976
G1 X67.952 Y106.580 E15.47761
G1 X68.483 Y106.508 E15.50435
G1 X69.078 Y106.410 E15.53443
G1 X69.632 Y106.291 E15.56270
G1 X70.227 Y106.122 E15.59356
G1 X70.465 Y106.042 E15.60609
G1 X71.051 Y105.789 E15.63793
G1 X71.555 Y105.491 E15.66714
G1 X71.996 Y105.143 E15.69517
G1 X72.451 Y104.655 E15.72846
G1 X72.839 Y104.092 E15.76257
G1 X73.147 Y103.475 E15.79697
G1 X73.341 Y102.965 E15.82420
G1 X73.504 Y102.485 E15.84949
G1 X73.679 Y102.042 E15.87325
G1 X73.833 Y101.745 E15.88994
G1 X74.017 Y101.467 E15.90657
G1 X74.304 Y101.142 E15.92820
G1 X74.599 Y100.887 E15.94766
G1 X74.960 Y100.646 E15.96931
G1 X75.374 Y100.433 E15.99254
G1 X75.831 Y100.252 E16.01706
