;Generated with Cura_SteamEngine 15.05
; Default start code
G28 ; Home extruder
G1 Z15 F100
M107 ; Turn off fan
G90 ; Absolute positioning
M82 ; Extruder in absolute mode
M190 S50
; Activate all used extruder
M104 T0 S200
G92 E0 ; Reset extruder position
; Wait for all used extruders to reach temperature
M109 T0 S200
;Layer count: 148
;LAYER:0
M107
G0 F4800 X31.374 Y95.040 Z0.300
;TYPE:SKIRT
G1 F1800 X88.625 Y95.040 E2.85626
G1 X88.625 Y104.959 E3.35112
G1 X88.600 Y104.959 E3.35237
G1 X88.600 Y115.040 E3.85532
G1 X88.625 Y115.040 E3.85656
G1 X88.625 Y124.959 E4.35142
G1 X31.374 Y124.959 E7.20769
G1 X31.374 Y115.040 E7.70255
G1 X31.400 Y115.040 E7.70385
G1 X31.400 Y104.824 E8.21352
G1 X31.374 Y104.823 E8.21482
G1 X31.374 Y95.040 E8.70290
G0 F4800 X31.774 Y95.440
G1 F1800 X88.225 Y95.440 E11.51925
G1 X88.225 Y104.559 E11.97420
G1 X88.200 Y104.559 E11.97545
G1 X88.200 Y115.440 E12.51830
G1 X88.225 Y115.440 E12.51955
G1 X88.225 Y124.559 E12.97450
G1 X31.774 Y124.559 E15.79085
G1 X31.774 Y115.440 E16.24580
G1 X31.800 Y115.440 E16.24709
G1 X31.800 Y104.439 E16.79594
G1 X31.774 Y104.438 E16.79723
G1 X31.774 Y95.440 E17.24615
G1 F2400 E13.24615
G0 F4800 X35.574 Y99.240
;TYPE:WALL-INNER
G1 F2400 E17.24615
G1 F1800 X84.425 Y99.240 E19.68333
G1 X84.425 Y100.759 E19.75912
G1 X84.400 Y100.759 E19.76036
G1 X84.400 Y119.240 E20.68238
G1 X84.425 Y119.240 E20.68363
G1 X84.425 Y120.759 E20.75941
G1 X35.574 Y120.759 E23.19660
G1 X35.574 Y119.240 E23.27238
G1 X35.600 Y119.240 E23.27368
G1 X35.600 Y100.783 E24.19451
G1 X35.574 Y100.782 E24.19580
G1 X35.574 Y99.240 E24.27273
G0 F4800 X39.400 Y100.759
G1 F1800 X39.400 Y119.240 E25.19475
G1 X80.600 Y119.240 E27.25023
G1 X80.600 Y100.760 E28.17220
G1 X39.400 Y100.759 E30.22768
G0 F4800 X39.800 Y101.159
;TYPE:WALL-OUTER
G1 F1800 X39.800 Y118.840 E31.10979
G1 X80.200 Y118.840 E33.12535
G1 X80.200 Y101.160 E34.00741
G1 X39.800 Y101.159 E36.02297
G0 F4800 X39.801 Y100.860
G0 X35.500 Y101.168
G0 X35.200 Y101.168
G1 F1800 X35.174 Y101.167 E36.02427
G1 X35.174 Y98.840 E36.14037
G1 X84.825 Y98.840 E38.61747
G1 X84.825 Y101.159 E38.73316
G1 X84.800 Y101.159 E38.73441
G1 X84.800 Y118.840 E39.61652
G1 X84.825 Y118.840 E39.61776
G1 X84.825 Y121.159 E39.73346
G1 X35.174 Y121.159 E42.21056
G1 X35.174 Y118.840 E42.32625
G1 X35.200 Y118.840 E42.32755
G1 X35.200 Y101.168 E43.20921
G0 F4800 X35.740 Y101.076
;TYPE:SKIN
G1 F1800 X39.259 Y104.596 E43.45753
G0 F4800 X39.259 Y105.162
G1 F1800 X35.740 Y101.642 E43.70585
G0 F4800 X35.740 Y102.208
G1 F1800 X39.259 Y105.728 E43.95417
G0 F4800 X39.259 Y106.293
G1 F1800 X35.740 Y102.773 E44.20249
G0 F4800 X35.740 Y103.339
G1 F1800 X39.259 Y106.859 E44.45081
G0 F4800 X39.259 Y107.425
G1 F1800 X35.740 Y103.905 E44.69913
G0 F4800 X35.740 Y104.470
G1 F1800 X39.259 Y107.990 E44.94745
G0 F4800 X39.259 Y108.556
G1 F1800 X35.740 Y105.036 E45.19577
G0 F4800 X35.740 Y105.602
G1 F1800 X39.259 Y109.122 E45.44409
G0 F4800 X39.259 Y109.687
G1 F1800 X35.740 Y106.167 E45.69241
G0 F4800 X35.740 Y106.733
G1 F1800 X39.259 Y110.253 E45.94073
G0 F4800 X39.259 Y110.819
G1 F1800 X35.740 Y107.299 E46.18905
G0 F4800 X35.740 Y107.864
G1 F1800 X39.259 Y111.384 E46.43737
G0 F4800 X39.259 Y111.950
G1 F1800 X35.740 Y108.430 E46.68569
G0 F4800 X35.740 Y108.996
G1 F1800 X39.259 Y112.516 E46.93401
G0 F4800 X39.259 Y113.081
G1 F1800 X35.740 Y109.561 E47.18233
G0 F4800 X35.740 Y110.127
G1 F1800 X39.259 Y113.647 E47.43065
G0 F4800 X39.259 Y114.213
G1 F1800 X35.740 Y110.693 E47.67897
G0 F4800 X35.740 Y111.259
G1 F1800 X39.259 Y114.778 E47.92725
G0 F4800 X39.259 Y115.344
G1 F1800 X35.740 Y111.824 E48.17557
G0 F4800 X35.740 Y112.390
G1 F1800 X39.259 Y115.910 E48.42389
G0 F4800 X39.259 Y116.476
G1 F1800 X35.740 Y112.956 E48.67221
G0 F4800 X35.740 Y113.521
G1 F1800 X39.259 Y117.041 E48.92053
G0 F4800 X39.259 Y117.607
G1 F1800 X35.740 Y114.087 E49.16885
G0 F4800 X35.740 Y114.653
G1 F1800 X39.259 Y118.173 E49.41717
G0 F4800 X39.259 Y118.738
G1 F1800 X35.740 Y115.218 E49.66549
G0 F4800 X35.740 Y115.784
G1 F1800 X39.259 Y119.304 E49.91381
G0 F4800 X39.334 Y119.379
G1 F1800 X40.573 Y120.618 E50.00123
G0 F4800 X40.008 Y120.618
G1 F1800 X35.740 Y116.350 E50.30236
G0 F4800 X35.740 Y116.915
G1 F1800 X39.442 Y120.618 E50.56359
G0 F4800 X38.876 Y120.618
G1 F1800 X35.740 Y117.481 E50.78488
G0 F4800 X35.740 Y118.047
G1 F1800 X38.311 Y120.618 E50.96628
G0 F4800 X37.745 Y120.618
G1 F1800 X35.740 Y118.612 E51.10778
G0 F4800 X35.740 Y119.178
G1 F1800 X37.179 Y120.618 E51.20935
G0 F4800 X36.613 Y120.618
G1 F1800 X35.714 Y119.718 E51.27281
G0 F4800 X39.900 Y119.379
G1 F1800 X41.139 Y120.618 E51.36023
G0 F4800 X41.705 Y120.618
G1 F1800 X40.466 Y119.379 E51.44765
G0 F4800 X41.031 Y119.379
G1 F1800 X42.270 Y120.618 E51.53506
G0 F4800 X42.836 Y120.618
G1 F1800 X41.597 Y119.379 E51.62248
G0 F4800 X42.163 Y119.379
G1 F1800 X43.402 Y120.618 E51.70990
G0 F4800 X43.967 Y120.618
G1 F1800 X42.729 Y119.379 E51.79728
G0 F4800 X43.294 Y119.379
G1 F1800 X44.533 Y120.618 E51.88470
G0 F4800 X45.099 Y120.618
G1 F1800 X43.860 Y119.379 E51.97212
G0 F4800 X44.426 Y119.379
G1 F1800 X45.664 Y120.618 E52.05950
G0 F4800 X46.230 Y120.618
G1 F1800 X44.991 Y119.379 E52.14692
G0 F4800 X45.557 Y119.379
G1 F1800 X46.796 Y120.618 E52.23434
G0 F4800 X47.362 Y120.618
G1 F1800 X46.123 Y119.379 E52.32176
G0 F4800 X46.688 Y119.379
G1 F1800 X47.927 Y120.618 E52.40918
G0 F4800 X48.493 Y120.618
G1 F1800 X47.254 Y119.379 E52.49659
G0 F4800 X47.820 Y119.379
G1 F1800 X49.059 Y120.618 E52.58401
G0 F4800 X49.624 Y120.618
G1 F1800 X48.385 Y119.379 E52.67143
G0 F4800 X48.951 Y119.379
G1 F1800 X50.190 Y120.618 E52.75885
G0 F4800 X50.756 Y120.618
G1 F1800 X49.517 Y119.379 E52.84627
G0 F4800 X50.082 Y119.379
G1 F1800 X51.321 Y120.618 E52.93368
G0 F4800 X51.887 Y120.618
G1 F1800 X50.648 Y119.379 E53.02110
G0 F4800 X51.214 Y119.379
G1 F1800 X52.453 Y120.618 E53.10852
G0 F4800 X53.018 Y120.618
G1 F1800 X51.780 Y119.379 E53.19590
G0 F4800 X52.345 Y119.379
G1 F1800 X53.584 Y120.618 E53.28332
G0 F4800 X54.150 Y120.618
G1 F1800 X52.911 Y119.379 E53.37074
G0 F4800 X53.477 Y119.379
G1 F1800 X54.715 Y120.618 E53.45812
G0 F4800 X55.281 Y120.618
G1 F1800 X54.042 Y119.379 E53.54554
G0 F4800 X54.608 Y119.379
G1 F1800 X55.847 Y120.618 E53.63296
G0 F4800 X56.412 Y120.618
G1 F1800 X55.174 Y119.379 E53.72034
G0 F4800 X55.739 Y119.379
G1 F1800 X56.978 Y120.618 E53.80776
G0 F4800 X57.544 Y120.618
G1 F1800 X56.305 Y119.379 E53.89518
G0 F4800 X56.871 Y119.379
G1 F1800 X58.110 Y120.618 E53.98260
G0 F4800 X58.675 Y120.618
G1 F1800 X57.436 Y119.379 E54.07001
G0 F4800 X58.002 Y119.379
G1 F1800 X59.241 Y120.618 E54.15743
G0 F4800 X59.807 Y120.618
G1 F1800 X58.568 Y119.379 E54.24485
G0 F4800 X59.133 Y119.379
G1 F1800 X60.372 Y120.618 E54.33227
G0 F4800 X60.938 Y120.618
G1 F1800 X59.699 Y119.379 E54.41969
G0 F4800 X39.459 Y119.181
G0 X39.459 Y100.818
G0 X59.606 Y100.618
G1 F1800 X58.366 Y99.378 E54.50718
G0 F4800 X57.801 Y99.378
G1 F1800 X59.040 Y100.618 E54.59463
G0 F4800 X58.474 Y100.618
G1 F1800 X57.235 Y99.378 E54.68208
G0 F4800 X56.669 Y99.378
G1 F1800 X57.909 Y100.618 E54.76957
G0 F4800 X57.343 Y100.618
G1 F1800 X56.103 Y99.378 E54.85706
G0 F4800 X55.538 Y99.378
G1 F1800 X56.777 Y100.618 E54.94451
G0 F4800 X56.212 Y100.618
G1 F1800 X54.972 Y99.378 E55.03200
G0 F4800 X54.406 Y99.378
G1 F1800 X55.646 Y100.618 E55.11949
G0 F4800 X55.080 Y100.618
G1 F1800 X53.841 Y99.378 E55.20694
G0 F4800 X53.275 Y99.378
G1 F1800 X54.515 Y100.618 E55.29443
G0 F4800 X53.949 Y100.618
G1 F1800 X52.709 Y99.378 E55.38192
G0 F4800 X52.144 Y99.378
G1 F1800 X53.383 Y100.618 E55.46938
G0 F4800 X52.818 Y100.618
G1 F1800 X51.578 Y99.378 E55.55686
G0 F4800 X51.012 Y99.378
G1 F1800 X52.252 Y100.618 E55.64435
G0 F4800 X51.686 Y100.618
G1 F1800 X50.447 Y99.378 E55.73181
G0 F4800 X49.881 Y99.378
G1 F1800 X51.120 Y100.618 E55.81926
G0 F4800 X50.555 Y100.618
G1 F1800 X49.315 Y99.378 E55.90675
G0 F4800 X48.750 Y99.378
G1 F1800 X49.989 Y100.618 E55.99420
G0 F4800 X49.423 Y100.618
G1 F1800 X48.184 Y99.378 E56.08165
G0 F4800 X47.618 Y99.378
G1 F1800 X48.858 Y100.618 E56.16914
G0 F4800 X48.292 Y100.618
G1 F1800 X47.053 Y99.378 E56.25660
G0 F4800 X46.487 Y99.378
G1 F1800 X47.726 Y100.618 E56.34405
G0 F4800 X47.161 Y100.618
G1 F1800 X45.921 Y99.378 E56.43154
G0 F4800 X45.355 Y99.378
G1 F1800 X46.595 Y100.618 E56.51903
G0 F4800 X46.029 Y100.618
G1 F1800 X44.790 Y99.378 E56.60648
G0 F4800 X44.224 Y99.378
G1 F1800 X45.464 Y100.618 E56.69397
G0 F4800 X44.898 Y100.618
G1 F1800 X43.658 Y99.378 E56.78146
G0 F4800 X43.093 Y99.378
G1 F1800 X44.332 Y100.618 E56.86891
G0 F4800 X43.767 Y100.618
G1 F1800 X42.527 Y99.378 E56.95640
G0 F4800 X41.961 Y99.378
G1 F1800 X43.201 Y100.618 E57.04389
G0 F4800 X42.635 Y100.618
G1 F1800 X41.396 Y99.378 E57.13134
G0 F4800 X40.830 Y99.378
G1 F1800 X42.070 Y100.618 E57.21883
G0 F4800 X41.504 Y100.618
G1 F1800 X40.264 Y99.378 E57.30632
G0 F4800 X58.932 Y99.378
G1 F1800 X60.171 Y100.618 E57.39377
G0 F4800 X60.737 Y100.618
G1 F1800 X59.498 Y99.378 E57.48123
G0 F4800 X60.063 Y99.378
G1 F1800 X61.303 Y100.618 E57.56872
G0 F4800 X61.869 Y100.618
G1 F1800 X60.629 Y99.378 E57.65620
G0 F4800 X61.195 Y99.378
G1 F1800 X62.434 Y100.618 E57.74366
G0 F4800 X63.000 Y100.618
G1 F1800 X61.760 Y99.378 E57.83115
G0 F4800 X62.326 Y99.378
G1 F1800 X63.566 Y100.618 E57.91864
G0 F4800 X64.131 Y100.618
G1 F1800 X62.892 Y99.378 E58.00609
G0 F4800 X63.457 Y99.378
G1 F1800 X64.697 Y100.618 E58.09358
G0 F4800 X65.263 Y100.618
G1 F1800 X64.023 Y99.378 E58.18107
G0 F4800 X64.589 Y99.378
G1 F1800 X65.828 Y100.618 E58.26852
G0 F4800 X66.394 Y100.618
G1 F1800 X65.154 Y99.378 E58.35601
G0 F4800 X65.720 Y99.378
G1 F1800 X66.960 Y100.618 E58.44350
G0 F4800 X67.525 Y100.618
G1 F1800 X66.286 Y99.378 E58.53095
G0 F4800 X66.851 Y99.378
G1 F1800 X68.091 Y100.618 E58.61844
G0 F4800 X68.657 Y100.618
G1 F1800 X67.417 Y99.378 E58.70593
G0 F4800 X67.983 Y99.378
G1 F1800 X69.222 Y100.618 E58.79338
G0 F4800 X69.788 Y100.618
G1 F1800 X68.549 Y99.378 E58.88083
G0 F4800 X69.114 Y99.378
G1 F1800 X70.354 Y100.618 E58.96832
G0 F4800 X70.919 Y100.618
G1 F1800 X69.680 Y99.378 E59.05578
G0 F4800 X70.246 Y99.378
G1 F1800 X71.485 Y100.618 E59.14323
G0 F4800 X72.051 Y100.618
G1 F1800 X70.811 Y99.378 E59.23072
G0 F4800 X71.377 Y99.378
G1 F1800 X72.617 Y100.618 E59.31821
G0 F4800 X73.182 Y100.618
G1 F1800 X71.943 Y99.378 E59.40566
G0 F4800 X72.508 Y99.378
G1 F1800 X73.748 Y100.618 E59.49315
G0 F4800 X74.314 Y100.618
G1 F1800 X73.074 Y99.378 E59.58064
G0 F4800 X73.640 Y99.378
G1 F1800 X74.879 Y100.618 E59.66809
G0 F4800 X75.445 Y100.618
G1 F1800 X74.205 Y99.378 E59.75558
G0 F4800 X74.771 Y99.378
G1 F1800 X76.011 Y100.618 E59.84307
G0 F4800 X76.576 Y100.618
G1 F1800 X75.337 Y99.378 E59.93052
G0 F4800 X75.902 Y99.378
G1 F1800 X77.142 Y100.618 E60.01801
G0 F4800 X77.708 Y100.618
G1 F1800 X76.468 Y99.378 E60.10550
G0 F4800 X77.034 Y99.378
G1 F1800 X78.273 Y100.618 E60.19295
G0 F4800 X78.839 Y100.618
G1 F1800 X77.600 Y99.378 E60.28041
G0 F4800 X78.165 Y99.378
G1 F1800 X79.405 Y100.618 E60.36790
G0 F4800 X79.970 Y100.618
G1 F1800 X78.731 Y99.378 E60.45535
G0 F4800 X79.297 Y99.378
G1 F1800 X80.536 Y100.618 E60.54280
G0 F4800 X80.739 Y100.821
G1 F1800 X84.260 Y104.342 E60.79123
G0 F4800 X84.260 Y104.907
G1 F1800 X80.739 Y101.387 E61.03962
G0 F4800 X80.739 Y101.952
G1 F1800 X84.260 Y105.473 E61.28804
G0 F4800 X84.260 Y106.039
G1 F1800 X80.739 Y102.518 E61.53647
G0 F4800 X80.739 Y103.084
G1 F1800 X84.260 Y106.604 E61.78486
G0 F4800 X84.260 Y107.170
G1 F1800 X80.739 Y103.649 E62.03329
G0 F4800 X80.739 Y104.215
G1 F1800 X84.260 Y107.736 E62.28171
G0 F4800 X84.260 Y108.301
G1 F1800 X80.739 Y104.781 E62.53010
G0 F4800 X80.739 Y105.346
G1 F1800 X84.260 Y108.867 E62.77853
G0 F4800 X84.260 Y109.433
G1 F1800 X80.739 Y105.912 E63.02695
G0 F4800 X80.739 Y106.478
G1 F1800 X84.260 Y109.998 E63.27534
G0 F4800 X84.260 Y110.564
G1 F1800 X80.739 Y107.043 E63.52377
G0 F4800 X80.739 Y107.609
G1 F1800 X84.260 Y111.130 E63.77219
G0 F4800 X84.260 Y111.696
G1 F1800 X80.739 Y108.175 E64.02062
G0 F4800 X80.739 Y108.741
G1 F1800 X84.260 Y112.261 E64.26901
G0 F4800 X84.260 Y112.827
G1 F1800 X80.739 Y109.306 E64.51744
G0 F4800 X80.739 Y109.872
G1 F1800 X84.260 Y113.393 E64.76586
G0 F4800 X84.260 Y113.958
G1 F1800 X80.739 Y110.438 E65.01425
G0 F4800 X80.739 Y111.003
G1 F1800 X84.260 Y114.524 E65.26268
G0 F4800 X84.260 Y115.090
G1 F1800 X80.739 Y111.569 E65.51110
G0 F4800 X80.739 Y112.135
G1 F1800 X84.260 Y115.655 E65.75949
G0 F4800 X84.260 Y116.221
G1 F1800 X80.739 Y112.700 E66.00792
G0 F4800 X80.739 Y113.266
G1 F1800 X84.260 Y116.787 E66.25634
G0 F4800 X84.260 Y117.352
G1 F1800 X80.739 Y113.832 E66.50473
G0 F4800 X80.739 Y114.397
G1 F1800 X84.260 Y117.918 E66.75316
G0 F4800 X84.260 Y118.484
G1 F1800 X80.739 Y114.963 E67.00159
G0 F4800 X80.739 Y115.529
G1 F1800 X84.260 Y119.049 E67.24998
G0 F4800 X84.285 Y119.640
G1 F1800 X80.739 Y116.094 E67.50016
G0 F4800 X80.739 Y116.660
G1 F1800 X84.285 Y120.206 E67.75035
G0 F4800 X84.131 Y120.618
G1 F1800 X80.739 Y117.226 E67.98968
G0 F4800 X80.739 Y117.791
G1 F1800 X83.565 Y120.618 E68.18910
G0 F4800 X83.000 Y120.618
G1 F1800 X80.739 Y118.357 E68.34863
G0 F4800 X80.739 Y118.923
G1 F1800 X82.434 Y120.618 E68.46822
G0 F4800 X81.868 Y120.618
G1 F1800 X80.629 Y119.379 E68.55564
G0 F4800 X80.064 Y119.379
G1 F1800 X81.303 Y120.618 E68.64306
G0 F4800 X80.737 Y120.618
G1 F1800 X79.498 Y119.379 E68.73047
G0 F4800 X78.932 Y119.379
G1 F1800 X80.171 Y120.618 E68.81789
G0 F4800 X79.606 Y120.618
G1 F1800 X78.367 Y119.379 E68.90531
G0 F4800 X77.801 Y119.379
G1 F1800 X79.040 Y120.618 E68.99273
G0 F4800 X78.474 Y120.618
G1 F1800 X77.235 Y119.379 E69.08015
G0 F4800 X76.670 Y119.379
G1 F1800 X77.909 Y120.618 E69.16757
G0 F4800 X77.343 Y120.618
G1 F1800 X76.104 Y119.379 E69.25498
G0 F4800 X75.538 Y119.379
G1 F1800 X76.777 Y120.618 E69.34240
G0 F4800 X76.211 Y120.618
G1 F1800 X74.973 Y119.379 E69.42978
G0 F4800 X74.407 Y119.379
G1 F1800 X75.646 Y120.618 E69.51720
G0 F4800 X75.080 Y120.618
G1 F1800 X73.841 Y119.379 E69.60462
G0 F4800 X73.276 Y119.379
G1 F1800 X74.514 Y120.618 E69.69200
G0 F4800 X73.949 Y120.618
G1 F1800 X72.710 Y119.379 E69.77942
G0 F4800 X72.144 Y119.379
G1 F1800 X73.383 Y120.618 E69.86684
G0 F4800 X72.817 Y120.618
G1 F1800 X71.579 Y119.379 E69.95422
G0 F4800 X71.013 Y119.379
G1 F1800 X72.252 Y120.618 E70.04164
G0 F4800 X71.686 Y120.618
G1 F1800 X70.447 Y119.379 E70.12906
G0 F4800 X69.881 Y119.379
G1 F1800 X71.120 Y120.618 E70.21648
G0 F4800 X70.555 Y120.618
G1 F1800 X69.316 Y119.379 E70.30390
G0 F4800 X68.750 Y119.379
G1 F1800 X69.989 Y120.618 E70.39131
G0 F4800 X69.423 Y120.618
G1 F1800 X68.184 Y119.379 E70.47873
G0 F4800 X67.619 Y119.379
G1 F1800 X68.858 Y120.618 E70.56615
G0 F4800 X68.292 Y120.618
G1 F1800 X67.053 Y119.379 E70.65357
G0 F4800 X66.487 Y119.379
G1 F1800 X67.726 Y120.618 E70.74099
G0 F4800 X67.161 Y120.618
G1 F1800 X65.922 Y119.379 E70.82840
G0 F4800 X65.356 Y119.379
G1 F1800 X66.595 Y120.618 E70.91582
G0 F4800 X66.029 Y120.618
G1 F1800 X64.790 Y119.379 E71.00324
G0 F4800 X64.225 Y119.379
G1 F1800 X65.463 Y120.618 E71.09062
G0 F4800 X64.898 Y120.618
G1 F1800 X63.659 Y119.379 E71.17804
G0 F4800 X63.093 Y119.379
G1 F1800 X64.332 Y120.618 E71.26546
G0 F4800 X63.766 Y120.618
G1 F1800 X62.528 Y119.379 E71.35284
G0 F4800 X61.962 Y119.379
G1 F1800 X63.201 Y120.618 E71.44026
G0 F4800 X62.635 Y120.618
G1 F1800 X61.396 Y119.379 E71.52768
G0 F4800 X60.830 Y119.379
G1 F1800 X62.069 Y120.618 E71.61510
G0 F4800 X61.504 Y120.618
G1 F1800 X60.265 Y119.379 E71.70252
G0 F4800 X36.048 Y120.618
G1 F1800 X35.714 Y120.284 E71.72608
G0 F4800 X39.259 Y104.030
G1 F1800 X35.713 Y100.484 E71.97627
G0 F4800 X35.713 Y99.919
G1 F1800 X39.259 Y103.465 E72.22646
G0 F4800 X39.259 Y102.899
G1 F1800 X35.739 Y99.378 E72.47485
G0 F4800 X36.304 Y99.378
G1 F1800 X39.259 Y102.333 E72.68334
G0 F4800 X39.259 Y101.768
G1 F1800 X36.870 Y99.378 E72.85193
G0 F4800 X37.436 Y99.378
G1 F1800 X39.259 Y101.202 E72.98059
G0 F4800 X39.259 Y100.636
G1 F1800 X38.002 Y99.378 E73.06931
G0 F4800 X38.567 Y99.378
G1 F1800 X39.807 Y100.618 E73.15680
G0 F4800 X40.372 Y100.618
